<?xml version="1.0" encoding="UTF-8"?>
<map version="1.10" tiledversion="1.11.0" orientation="orthogonal" renderorder="right-down" compressionlevel="0" width="20" height="24" tilewidth="16" tileheight="16" infinite="0" nextlayerid="7" nextobjectid="3">
 <properties>
  <property name="AmbientLight" value="255 255 255"/>
  <property name="AmbientNightLight" value="180 180 0"/>
  <property name="Warp" value="10 24 Farm 28 16"/>
 </properties>
 <tileset firstgid="1" name="paths" tilewidth="16" tileheight="16" tilecount="64" columns="4">
  <image source="paths" width="64" height="256"/>
 </tileset>
 <tileset firstgid="65" name="untitled tile sheet" tilewidth="16" tileheight="16" tilecount="2176" columns="32">
  <image source="townInterior" width="512" height="1088"/>
  <tile id="1885">
   <properties>
    <property name="Type" value="Wood"/>
   </properties>
  </tile>
  <tile id="1887">
   <properties>
    <property name="Type" value="Stone"/>
   </properties>
  </tile>
  <tile id="1945">
   <properties>
    <property name="Type" value="Stone"/>
   </properties>
  </tile>
  <tile id="1946">
   <properties>
    <property name="Diggable" value="T"/>
    <property name="Type" value="Dirt"/>
   </properties>
  </tile>
  <tile id="2046">
   <animation>
    <frame tileid="2046" duration="250"/>
    <frame tileid="2046" duration="250"/>
    <frame tileid="2046" duration="250"/>
    <frame tileid="2046" duration="250"/>
    <frame tileid="2009" duration="250"/>
    <frame tileid="2009" duration="250"/>
    <frame tileid="2009" duration="250"/>
    <frame tileid="2009" duration="250"/>
   </animation>
  </tile>
  <tile id="2047">
   <animation>
    <frame tileid="2047" duration="250"/>
    <frame tileid="2047" duration="250"/>
    <frame tileid="2047" duration="250"/>
    <frame tileid="1977" duration="250"/>
    <frame tileid="1977" duration="250"/>
    <frame tileid="1977" duration="250"/>
    <frame tileid="1977" duration="250"/>
    <frame tileid="2047" duration="250"/>
   </animation>
  </tile>
  <tile id="2075">
   <properties>
    <property name="Diggable" value="T"/>
    <property name="Type" value="Dirt"/>
   </properties>
  </tile>
  <tile id="2076">
   <properties>
    <property name="Diggable" type="bool" value="true"/>
    <property name="Type" value="Dirt"/>
   </properties>
  </tile>
  <tile id="2078">
   <properties>
    <property name="Type" value="Wood"/>
   </properties>
  </tile>
  <tile id="2079">
   <properties>
    <property name="Type" value="Wood"/>
   </properties>
  </tile>
  <tile id="2106">
   <properties>
    <property name="Type" value="Wood"/>
   </properties>
  </tile>
  <tile id="2107">
   <properties>
    <property name="Diggable" value="T"/>
    <property name="Type" value="Dirt"/>
   </properties>
  </tile>
  <tile id="2108">
   <properties>
    <property name="Diggable" value="T"/>
    <property name="Type" value="Dirt"/>
   </properties>
  </tile>
  <tile id="2109">
   <properties>
    <property name="Type" value="Stone"/>
   </properties>
  </tile>
 </tileset>
 <tileset firstgid="2241" source="outdoors.tsx"/>
 <layer id="1" name="Back" width="20" height="24">
  <data encoding="csv">
2441,2420,2420,2420,2420,2420,2420,2420,2420,2420,2420,2420,2420,2420,2420,2420,2420,2420,2420,2444,
2466,2467,2467,2467,2467,2467,2467,2467,2467,2467,2467,2467,2467,2467,2467,2467,2467,2467,2467,2469,
2466,2467,2467,2467,2467,2467,2467,2467,2467,2467,2467,2467,2467,2467,2467,2467,2467,2467,2467,2469,
2466,2467,2467,2467,2467,2467,2467,2467,2467,2467,2467,2467,2467,2467,2467,2467,2467,2467,2467,2469,
2466,2467,2467,2467,2467,2467,2467,2467,2467,2467,2467,2467,2467,2467,2467,2467,2467,2467,2467,2469,
2466,2467,2467,2467,2467,2467,2467,2467,2467,2467,2467,2467,2467,2467,2467,2467,2467,2467,2467,2469,
2466,2467,2467,2467,2467,2467,2467,2467,2467,2467,2467,2467,2467,2467,2467,2467,2467,2467,2467,2469,
2466,2467,2467,2467,2467,2467,2467,2467,2467,2467,2467,2467,2467,2467,2467,2467,2467,2467,2467,2469,
2466,2467,2467,2467,2467,2467,2467,2467,2467,2467,2467,2467,2467,2467,2467,2467,2467,2467,2467,2469,
2466,2467,2467,2467,2467,2467,2467,2467,2467,2467,2467,2467,2467,2467,2467,2467,2467,2467,2467,2469,
2466,2467,2467,2467,2467,2467,2467,2467,2467,2467,2467,2467,2467,2467,2467,2467,2467,2467,2467,2469,
2466,2467,2467,2467,2467,2467,2467,2467,2467,2467,2467,2467,2467,2467,2467,2467,2467,2467,2467,2469,
2466,2467,2467,2467,2467,2467,2467,2467,2467,2467,2467,2467,2467,2467,2467,2467,2467,2467,2467,2469,
2466,2467,2467,2467,2467,2467,2467,2467,2467,2467,2467,2467,2467,2467,2467,2467,2467,2467,2467,2469,
2466,2467,2467,2467,2467,2467,2467,2467,2467,2467,2467,2467,2467,2467,2467,2467,2467,2467,2467,2469,
2466,2467,2467,2467,2467,2467,2467,2467,2467,2467,2467,2467,2467,2467,2467,2467,2467,2467,2467,2469,
2466,2467,2467,2467,2467,2467,2467,2467,2467,2467,2467,2467,2467,2467,2467,2467,2467,2467,2467,2469,
2466,2467,2467,2467,2467,2467,2467,2467,2467,2467,2467,2467,2467,2467,2467,2467,2467,2467,2467,2469,
2466,2467,2467,2467,2467,2467,2467,2467,2467,2467,2467,2467,2467,2467,2467,2467,2467,2467,2467,2469,
2466,2467,2467,2467,2467,2467,2467,2467,2467,2467,2467,2467,2467,2467,2467,2467,2467,2467,2467,2469,
2466,2467,2467,2467,2467,2467,2467,2467,2467,2467,2467,2467,2467,2467,2467,2467,2467,2467,2467,2469,
2466,2467,2467,2467,2467,2467,2467,2467,2467,2467,2467,2467,2467,2467,2467,2467,2467,2467,2467,2469,
2466,2467,2467,2467,2467,2467,2467,2467,2467,2467,2467,2467,2467,2467,2467,2467,2467,2467,2467,2469,
2491,2471,2471,2471,2471,2471,2471,2471,2471,2471,2471,2471,2471,2471,2471,2471,2471,2471,2471,2494
</data>
 </layer>
 <layer id="2" name="Buildings" width="20" height="24">
  <data encoding="csv">
0,0,0,0,0,0,0,0,0,0,0,0,0,0,0,0,0,0,0,0,
0,0,0,0,0,0,0,0,0,0,0,0,0,0,0,0,0,0,0,0,
0,0,2244,2245,2246,0,0,0,0,0,0,0,0,0,0,0,0,0,0,0,
0,0,2269,2270,2271,0,0,0,0,0,0,0,0,0,0,0,0,0,0,0,
0,0,2294,2295,2296,0,0,0,0,0,0,0,0,0,0,0,0,0,0,0,
0,0,2319,2320,2321,2244,2245,2246,0,2402,0,0,0,0,0,0,2402,0,0,0,
0,0,2344,2345,2346,2269,2270,2271,0,0,0,0,0,0,0,0,0,0,0,0,
0,0,2369,2370,2371,2294,2295,2296,0,0,0,0,0,0,0,0,0,0,0,0,
0,0,0,0,0,2319,2320,2321,0,0,0,0,0,0,0,0,0,0,0,0,
0,0,0,0,0,2344,2345,2346,0,0,0,0,0,0,0,0,0,0,0,0,
0,0,0,0,0,2369,2370,2371,0,0,0,0,0,0,0,0,0,0,0,0,
0,0,0,0,0,0,0,0,0,0,0,0,0,0,0,0,0,0,0,0,
0,0,0,0,0,0,0,0,0,0,0,0,0,0,0,0,0,0,0,0,
0,0,0,0,0,0,0,0,0,0,0,0,0,0,0,0,0,0,0,0,
0,0,0,0,0,0,0,0,0,2402,0,0,2244,2245,2246,0,0,0,0,0,
0,0,0,0,0,0,0,0,0,0,0,0,2269,2270,2271,0,0,0,0,0,
0,0,0,0,0,0,0,0,0,0,0,0,2294,2295,2296,0,0,0,0,0,
0,0,0,0,2402,0,0,0,0,0,0,0,2319,2320,2321,0,0,0,0,0,
0,0,0,0,0,0,0,0,0,0,0,0,2344,2345,2346,0,0,2402,0,0,
0,0,0,0,0,0,0,0,0,0,0,0,2369,2370,2371,0,0,0,0,0,
0,0,0,0,0,0,0,0,0,0,0,0,0,0,0,0,0,0,0,0,
0,0,0,0,0,0,0,0,0,0,0,0,0,0,0,0,0,0,0,0,
0,0,0,0,0,0,0,0,0,0,0,0,0,0,0,0,0,0,0,0,
0,0,0,0,0,0,0,0,0,0,0,0,0,0,0,0,0,0,0,0
</data>
 </layer>
 <layer id="3" name="Front" width="20" height="24">
  <data encoding="csv">
0,0,0,0,0,0,0,0,0,0,0,0,0,0,0,0,0,0,0,0,
0,0,0,0,0,0,0,0,0,0,0,0,0,0,0,0,0,0,0,0,
0,0,0,0,0,0,0,0,0,0,0,0,0,0,0,0,0,0,0,0,
0,0,0,0,0,0,0,0,0,0,0,0,0,0,0,0,0,0,0,0,
0,0,0,0,0,0,0,0,0,0,0,0,0,0,0,0,0,0,0,0,
0,0,0,0,0,0,0,0,0,0,0,0,0,0,0,0,0,0,0,0,
0,0,0,0,0,0,0,0,0,0,0,0,0,0,0,0,0,0,0,0,
0,0,0,0,0,0,0,0,0,0,0,0,0,0,0,0,0,0,0,0,
0,0,0,0,0,0,0,0,0,0,0,0,0,0,0,0,0,0,0,0,
0,0,0,0,0,0,0,0,0,0,0,0,0,0,0,0,0,0,0,0,
0,0,0,0,0,0,0,0,0,0,0,0,0,0,0,0,0,0,0,0,
0,0,0,0,0,0,0,0,0,0,0,0,0,0,0,0,0,0,0,0,
0,0,0,0,0,0,0,0,0,0,0,0,0,0,0,0,0,0,0,0,
0,0,0,0,0,0,0,0,0,0,0,0,0,0,0,0,0,0,0,0,
0,0,0,0,0,0,0,0,0,0,0,0,0,0,0,0,0,0,0,0,
0,0,0,0,0,0,0,0,0,0,0,0,0,0,0,0,0,0,0,0,
0,0,0,0,0,0,0,0,0,0,0,0,0,0,0,0,0,0,0,0,
0,0,0,0,0,0,0,0,0,0,0,0,0,0,0,0,0,0,0,0,
0,0,0,0,0,0,0,0,0,0,0,0,0,0,0,0,0,0,0,0,
0,0,0,0,0,0,0,0,0,0,0,0,0,0,0,0,0,0,0,0,
0,0,0,0,0,0,0,0,0,0,0,0,0,0,0,0,0,0,0,0,
0,0,0,0,0,0,0,0,0,0,0,0,0,0,0,0,0,0,0,0,
0,0,0,0,0,0,0,0,0,0,0,0,0,0,0,0,0,0,0,0,
0,0,0,0,0,0,0,0,0,0,0,0,0,0,0,0,0,0,0,0
</data>
 </layer>
 <objectgroup id="4" name="Back" visible="0">
  <object id="1" name="TileData" x="144" y="112" width="16" height="16">
   <properties>
    <property name="WaterSource" value="T"/>
   </properties>
  </object>
  <object id="2" name="TileData" x="160" y="112" width="16" height="16">
   <properties>
    <property name="WaterSource" value="T"/>
   </properties>
  </object>
 </objectgroup>
 <objectgroup id="5" name="Buildings"/>
 <objectgroup id="6" name="Front"/>
</map>
