<?xml version="1.0" encoding="UTF-8"?>
<map version="1.10" tiledversion="1.11.0" orientation="orthogonal" renderorder="right-down" compressionlevel="0" width="43" height="60" tilewidth="16" tileheight="16" infinite="0" nextlayerid="12" nextobjectid="20">
 <properties>
  <property name="LocationContext" value="Default"/>
  <property name="NPCWarp" value="17 44 FishShop 4 4"/>
  <property name="Outdoors" value="T"/>
  <property name="SeasonOverride" value="summer"/>
  <property name="Warp" value=""/>
 </properties>
 <tileset firstgid="1" name="untitled tile sheet" tilewidth="16" tileheight="16" tilecount="2080" columns="32">
  <image source="island_tilesheet_1" width="512" height="1040"/>
  <tile id="7">
   <properties>
    <property name="Water" value="T"/>
   </properties>
  </tile>
  <tile id="8">
   <properties>
    <property name="Water" value="T"/>
   </properties>
  </tile>
  <tile id="33">
   <properties>
    <property name="Diggable" value="T"/>
    <property name="Type" value="Dirt"/>
   </properties>
  </tile>
  <tile id="34">
   <properties>
    <property name="Diggable" value="T"/>
    <property name="Type" value="Dirt"/>
   </properties>
  </tile>
  <tile id="35">
   <properties>
    <property name="Diggable" value="T"/>
    <property name="Type" value="Dirt"/>
   </properties>
  </tile>
  <tile id="36">
   <properties>
    <property name="Type" value="Dirt"/>
   </properties>
  </tile>
  <tile id="37">
   <properties>
    <property name="Type" value="Dirt"/>
   </properties>
  </tile>
  <tile id="38">
   <properties>
    <property name="Type" value="Dirt"/>
   </properties>
  </tile>
  <tile id="39">
   <properties>
    <property name="Type" value="Dirt"/>
   </properties>
  </tile>
  <tile id="40">
   <properties>
    <property name="Diggable" value="T"/>
    <property name="Type" value="Dirt"/>
   </properties>
  </tile>
  <tile id="41">
   <properties>
    <property name="Diggable" value="T"/>
    <property name="Type" value="Dirt"/>
   </properties>
  </tile>
  <tile id="64">
   <properties>
    <property name="Type" value="Dirt"/>
   </properties>
  </tile>
  <tile id="65">
   <properties>
    <property name="Type" value="Dirt"/>
   </properties>
  </tile>
  <tile id="66">
   <properties>
    <property name="Type" value="Dirt"/>
   </properties>
  </tile>
  <tile id="67">
   <properties>
    <property name="Type" value="Dirt"/>
   </properties>
  </tile>
  <tile id="71">
   <properties>
    <property name="Type" value="Dirt"/>
   </properties>
  </tile>
  <tile id="72">
   <properties>
    <property name="Diggable" value="T"/>
    <property name="Type" value="Dirt"/>
   </properties>
  </tile>
  <tile id="73">
   <properties>
    <property name="Diggable" value="T"/>
    <property name="Type" value="Dirt"/>
   </properties>
  </tile>
  <tile id="96">
   <properties>
    <property name="Type" value="Dirt"/>
   </properties>
  </tile>
  <tile id="97">
   <properties>
    <property name="Type" value="Dirt"/>
   </properties>
  </tile>
  <tile id="98">
   <properties>
    <property name="Type" value="Dirt"/>
   </properties>
  </tile>
  <tile id="99">
   <properties>
    <property name="Type" value="Dirt"/>
   </properties>
  </tile>
  <tile id="103">
   <properties>
    <property name="Type" value="Dirt"/>
   </properties>
  </tile>
  <tile id="104">
   <properties>
    <property name="Type" value="Dirt"/>
   </properties>
  </tile>
  <tile id="128">
   <properties>
    <property name="Type" value="Dirt"/>
   </properties>
  </tile>
  <tile id="129">
   <properties>
    <property name="Type" value="Dirt"/>
   </properties>
  </tile>
  <tile id="130">
   <properties>
    <property name="Type" value="Dirt"/>
   </properties>
  </tile>
  <tile id="131">
   <properties>
    <property name="Type" value="Dirt"/>
   </properties>
  </tile>
  <tile id="135">
   <properties>
    <property name="Water" value="T"/>
   </properties>
  </tile>
  <tile id="160">
   <properties>
    <property name="Water" value="T"/>
   </properties>
  </tile>
  <tile id="161">
   <properties>
    <property name="Water" value="T"/>
   </properties>
  </tile>
  <tile id="162">
   <properties>
    <property name="Water" value="T"/>
   </properties>
  </tile>
  <tile id="163">
   <properties>
    <property name="Water" value="T"/>
   </properties>
  </tile>
  <tile id="164">
   <properties>
    <property name="Water" value="T"/>
   </properties>
  </tile>
  <tile id="165">
   <properties>
    <property name="Water" value="T"/>
   </properties>
  </tile>
  <tile id="166">
   <properties>
    <property name="Water" value="T"/>
   </properties>
  </tile>
  <tile id="167">
   <properties>
    <property name="Water" value="T"/>
   </properties>
  </tile>
  <tile id="168">
   <properties>
    <property name="Water" value="T"/>
   </properties>
  </tile>
  <tile id="192">
   <properties>
    <property name="Water" value="T"/>
   </properties>
  </tile>
  <tile id="193">
   <properties>
    <property name="Water" value="T"/>
   </properties>
  </tile>
  <tile id="197">
   <properties>
    <property name="Type" value="Dirt"/>
    <property name="Water" value="T"/>
   </properties>
  </tile>
  <tile id="198">
   <properties>
    <property name="Water" value="T"/>
   </properties>
  </tile>
  <tile id="199">
   <properties>
    <property name="Water" value="T"/>
   </properties>
  </tile>
  <tile id="200">
   <properties>
    <property name="Water" value="T"/>
   </properties>
  </tile>
  <tile id="225">
   <properties>
    <property name="Water" value="T"/>
   </properties>
  </tile>
  <tile id="229">
   <properties>
    <property name="Water" value="T"/>
   </properties>
  </tile>
  <tile id="230">
   <properties>
    <property name="Water" value="T"/>
   </properties>
  </tile>
  <tile id="231">
   <properties>
    <property name="Water" value="T"/>
   </properties>
  </tile>
  <tile id="232">
   <properties>
    <property name="Water" value="T"/>
   </properties>
  </tile>
  <tile id="234">
   <properties>
    <property name="Water" value="T"/>
   </properties>
  </tile>
  <tile id="235">
   <properties>
    <property name="Water" value="T"/>
   </properties>
  </tile>
  <tile id="236">
   <properties>
    <property name="Water" value="T"/>
   </properties>
  </tile>
  <tile id="256">
   <properties>
    <property name="Water" value="T"/>
   </properties>
  </tile>
  <tile id="257">
   <properties>
    <property name="Water" value="T"/>
   </properties>
  </tile>
  <tile id="261">
   <properties>
    <property name="Passable" value="T"/>
   </properties>
   <animation>
    <frame tileid="261" duration="250"/>
    <frame tileid="261" duration="250"/>
    <frame tileid="261" duration="250"/>
    <frame tileid="261" duration="250"/>
    <frame tileid="262" duration="250"/>
    <frame tileid="263" duration="250"/>
    <frame tileid="264" duration="250"/>
    <frame tileid="264" duration="250"/>
    <frame tileid="265" duration="250"/>
    <frame tileid="266" duration="250"/>
    <frame tileid="267" duration="250"/>
    <frame tileid="261" duration="250"/>
    <frame tileid="261" duration="250"/>
   </animation>
  </tile>
  <tile id="262">
   <properties>
    <property name="Passable" value="T"/>
   </properties>
  </tile>
  <tile id="263">
   <properties>
    <property name="Passable" value="T"/>
   </properties>
  </tile>
  <tile id="264">
   <properties>
    <property name="Passable" value="T"/>
   </properties>
  </tile>
  <tile id="265">
   <properties>
    <property name="Passable" value="T"/>
   </properties>
  </tile>
  <tile id="266">
   <properties>
    <property name="Passable" value="T"/>
   </properties>
  </tile>
  <tile id="267">
   <properties>
    <property name="Passable" value="T"/>
   </properties>
  </tile>
  <tile id="268">
   <properties>
    <property name="Water" value="T"/>
   </properties>
  </tile>
  <tile id="288">
   <properties>
    <property name="Water" value="T"/>
   </properties>
  </tile>
  <tile id="289">
   <properties>
    <property name="Water" value="T"/>
   </properties>
  </tile>
  <tile id="293">
   <properties>
    <property name="Passable" value="T"/>
   </properties>
   <animation>
    <frame tileid="293" duration="250"/>
    <frame tileid="293" duration="250"/>
    <frame tileid="293" duration="250"/>
    <frame tileid="293" duration="250"/>
    <frame tileid="294" duration="250"/>
    <frame tileid="295" duration="250"/>
    <frame tileid="296" duration="250"/>
    <frame tileid="296" duration="250"/>
    <frame tileid="297" duration="250"/>
    <frame tileid="298" duration="250"/>
    <frame tileid="299" duration="250"/>
    <frame tileid="293" duration="250"/>
    <frame tileid="293" duration="250"/>
   </animation>
  </tile>
  <tile id="294">
   <properties>
    <property name="Passable" value="T"/>
   </properties>
  </tile>
  <tile id="295">
   <properties>
    <property name="Passable" value="T"/>
   </properties>
  </tile>
  <tile id="296">
   <properties>
    <property name="Passable" value="T"/>
   </properties>
  </tile>
  <tile id="297">
   <properties>
    <property name="Passable" value="T"/>
   </properties>
  </tile>
  <tile id="298">
   <properties>
    <property name="Passable" value="T"/>
   </properties>
  </tile>
  <tile id="299">
   <properties>
    <property name="Passable" value="T"/>
   </properties>
  </tile>
  <tile id="300">
   <properties>
    <property name="Water" value="T"/>
   </properties>
  </tile>
  <tile id="303">
   <properties>
    <property name="Diggable" value="T"/>
    <property name="Type" value="Dirt"/>
   </properties>
  </tile>
  <tile id="320">
   <properties>
    <property name="Water" value="T"/>
   </properties>
  </tile>
  <tile id="321">
   <properties>
    <property name="Water" value="T"/>
   </properties>
  </tile>
  <tile id="325">
   <properties>
    <property name="Passable" value="T"/>
   </properties>
  </tile>
  <tile id="326">
   <properties>
    <property name="Passable" value="T"/>
   </properties>
  </tile>
  <tile id="327">
   <properties>
    <property name="Passable" value="T"/>
   </properties>
  </tile>
  <tile id="328">
   <properties>
    <property name="Passable" value="T"/>
   </properties>
  </tile>
  <tile id="329">
   <properties>
    <property name="Passable" value="T"/>
   </properties>
  </tile>
  <tile id="330">
   <properties>
    <property name="Passable" value="T"/>
   </properties>
  </tile>
  <tile id="331">
   <properties>
    <property name="Passable" value="T"/>
   </properties>
  </tile>
  <tile id="335">
   <properties>
    <property name="Water" value="T"/>
   </properties>
  </tile>
  <tile id="357">
   <properties>
    <property name="Passable" value="T"/>
   </properties>
  </tile>
  <tile id="358">
   <properties>
    <property name="Passable" value="T"/>
   </properties>
  </tile>
  <tile id="359">
   <properties>
    <property name="Passable" value="T"/>
   </properties>
  </tile>
  <tile id="360">
   <properties>
    <property name="Passable" value="T"/>
   </properties>
  </tile>
  <tile id="361">
   <properties>
    <property name="Passable" value="T"/>
   </properties>
  </tile>
  <tile id="362">
   <properties>
    <property name="Passable" value="T"/>
   </properties>
  </tile>
  <tile id="363">
   <properties>
    <property name="Passable" value="T"/>
   </properties>
  </tile>
  <tile id="368">
   <properties>
    <property name="Water" value="T"/>
   </properties>
  </tile>
  <tile id="389">
   <properties>
    <property name="Passable" value="T"/>
   </properties>
  </tile>
  <tile id="390">
   <properties>
    <property name="Passable" value="T"/>
   </properties>
  </tile>
  <tile id="391">
   <properties>
    <property name="Passable" value="T"/>
   </properties>
  </tile>
  <tile id="392">
   <properties>
    <property name="Passable" value="T"/>
   </properties>
  </tile>
  <tile id="393">
   <properties>
    <property name="Passable" value="T"/>
   </properties>
  </tile>
  <tile id="394">
   <properties>
    <property name="Passable" value="T"/>
   </properties>
  </tile>
  <tile id="395">
   <properties>
    <property name="Passable" value="T"/>
   </properties>
  </tile>
  <tile id="421">
   <properties>
    <property name="Passable" value="T"/>
   </properties>
   <animation>
    <frame tileid="421" duration="250"/>
    <frame tileid="421" duration="250"/>
    <frame tileid="421" duration="250"/>
    <frame tileid="421" duration="250"/>
    <frame tileid="422" duration="250"/>
    <frame tileid="423" duration="250"/>
    <frame tileid="424" duration="250"/>
    <frame tileid="424" duration="250"/>
    <frame tileid="425" duration="250"/>
    <frame tileid="426" duration="250"/>
    <frame tileid="427" duration="250"/>
    <frame tileid="421" duration="250"/>
    <frame tileid="421" duration="250"/>
   </animation>
  </tile>
  <tile id="422">
   <properties>
    <property name="Passable" value="T"/>
   </properties>
  </tile>
  <tile id="423">
   <properties>
    <property name="Passable" value="T"/>
   </properties>
  </tile>
  <tile id="424">
   <properties>
    <property name="Passable" value="T"/>
   </properties>
  </tile>
  <tile id="425">
   <properties>
    <property name="Passable" value="T"/>
   </properties>
  </tile>
  <tile id="426">
   <properties>
    <property name="Passable" value="T"/>
   </properties>
  </tile>
  <tile id="427">
   <properties>
    <property name="Passable" value="T"/>
   </properties>
  </tile>
  <tile id="453">
   <properties>
    <property name="Passable" value="T"/>
   </properties>
   <animation>
    <frame tileid="453" duration="250"/>
    <frame tileid="453" duration="250"/>
    <frame tileid="453" duration="250"/>
    <frame tileid="453" duration="250"/>
    <frame tileid="454" duration="250"/>
    <frame tileid="455" duration="250"/>
    <frame tileid="456" duration="250"/>
    <frame tileid="456" duration="250"/>
    <frame tileid="457" duration="250"/>
    <frame tileid="458" duration="250"/>
    <frame tileid="459" duration="250"/>
    <frame tileid="453" duration="250"/>
    <frame tileid="453" duration="250"/>
   </animation>
  </tile>
  <tile id="454">
   <properties>
    <property name="Passable" value="T"/>
   </properties>
  </tile>
  <tile id="455">
   <properties>
    <property name="Passable" value="T"/>
   </properties>
  </tile>
  <tile id="456">
   <properties>
    <property name="Passable" value="T"/>
   </properties>
  </tile>
  <tile id="457">
   <properties>
    <property name="Passable" value="T"/>
   </properties>
  </tile>
  <tile id="458">
   <properties>
    <property name="Passable" value="T"/>
   </properties>
  </tile>
  <tile id="459">
   <properties>
    <property name="Passable" value="T"/>
   </properties>
  </tile>
  <tile id="485">
   <properties>
    <property name="Passable" value="T"/>
   </properties>
  </tile>
  <tile id="486">
   <properties>
    <property name="Passable" value="T"/>
   </properties>
  </tile>
  <tile id="487">
   <properties>
    <property name="Passable" value="T"/>
   </properties>
  </tile>
  <tile id="488">
   <properties>
    <property name="Passable" value="T"/>
   </properties>
  </tile>
  <tile id="489">
   <properties>
    <property name="Passable" value="T"/>
   </properties>
  </tile>
  <tile id="490">
   <properties>
    <property name="Passable" value="T"/>
   </properties>
  </tile>
  <tile id="491">
   <properties>
    <property name="Passable" value="T"/>
   </properties>
  </tile>
  <tile id="517">
   <properties>
    <property name="Type" value="Wood"/>
   </properties>
  </tile>
  <tile id="518">
   <properties>
    <property name="Type" value="Wood"/>
   </properties>
  </tile>
  <tile id="519">
   <properties>
    <property name="Type" value="Wood"/>
   </properties>
  </tile>
  <tile id="549">
   <properties>
    <property name="Type" value="Wood"/>
   </properties>
  </tile>
  <tile id="550">
   <properties>
    <property name="Type" value="Wood"/>
   </properties>
  </tile>
  <tile id="551">
   <properties>
    <property name="Type" value="Wood"/>
   </properties>
  </tile>
  <tile id="552">
   <properties>
    <property name="Type" value="Wood"/>
   </properties>
  </tile>
  <tile id="553">
   <properties>
    <property name="Type" value="Wood"/>
   </properties>
  </tile>
  <tile id="554">
   <properties>
    <property name="Type" value="Wood"/>
   </properties>
  </tile>
  <tile id="581">
   <properties>
    <property name="Type" value="Wood"/>
   </properties>
  </tile>
  <tile id="582">
   <properties>
    <property name="Type" value="Wood"/>
   </properties>
  </tile>
  <tile id="583">
   <properties>
    <property name="Type" value="Wood"/>
   </properties>
  </tile>
  <tile id="584">
   <properties>
    <property name="Type" value="Wood"/>
   </properties>
  </tile>
  <tile id="585">
   <properties>
    <property name="Type" value="Wood"/>
   </properties>
  </tile>
  <tile id="586">
   <properties>
    <property name="Type" value="Wood"/>
   </properties>
  </tile>
  <tile id="588">
   <properties>
    <property name="Water" value="T"/>
   </properties>
  </tile>
  <tile id="589">
   <properties>
    <property name="Water" value="T"/>
   </properties>
  </tile>
  <tile id="590">
   <properties>
    <property name="Water" value="T"/>
   </properties>
  </tile>
  <tile id="591">
   <properties>
    <property name="Water" value="T"/>
   </properties>
  </tile>
  <tile id="592">
   <properties>
    <property name="Water" value="T"/>
   </properties>
  </tile>
  <tile id="593">
   <properties>
    <property name="Water" value="T"/>
   </properties>
  </tile>
  <tile id="619">
   <properties>
    <property name="Water" value="T"/>
   </properties>
  </tile>
  <tile id="620">
   <properties>
    <property name="Water" value="T"/>
   </properties>
  </tile>
  <tile id="621">
   <properties>
    <property name="Water" value="T"/>
   </properties>
  </tile>
  <tile id="622">
   <properties>
    <property name="Water" value="T"/>
   </properties>
  </tile>
  <tile id="623">
   <properties>
    <property name="Water" value="T"/>
   </properties>
  </tile>
  <tile id="624">
   <properties>
    <property name="Water" value="T"/>
   </properties>
  </tile>
  <tile id="625">
   <properties>
    <property name="Water" value="T"/>
   </properties>
  </tile>
  <tile id="626">
   <properties>
    <property name="Water" value="T"/>
   </properties>
  </tile>
  <tile id="658">
   <properties>
    <property name="Water" value="T"/>
   </properties>
  </tile>
  <tile id="659">
   <properties>
    <property name="Water" value="T"/>
   </properties>
  </tile>
  <tile id="673">
   <properties>
    <property name="Diggable" value="T"/>
    <property name="Type" value="Dirt"/>
   </properties>
  </tile>
  <tile id="674">
   <properties>
    <property name="Diggable" value="T"/>
    <property name="Type" value="Dirt"/>
   </properties>
  </tile>
  <tile id="690">
   <properties>
    <property name="Water" value="T"/>
   </properties>
  </tile>
  <tile id="1651">
   <properties>
    <property name="Water" value="T"/>
   </properties>
  </tile>
  <tile id="1652">
   <properties>
    <property name="Water" value="T"/>
   </properties>
  </tile>
  <tile id="1653">
   <properties>
    <property name="Water" value="T"/>
   </properties>
  </tile>
  <tile id="1682">
   <properties>
    <property name="Water" value="T"/>
   </properties>
  </tile>
  <tile id="1683">
   <properties>
    <property name="Water" value="T"/>
   </properties>
  </tile>
  <tile id="1684">
   <properties>
    <property name="Water" value="T"/>
   </properties>
  </tile>
  <tile id="1685">
   <properties>
    <property name="Water" value="T"/>
   </properties>
  </tile>
  <tile id="1686">
   <properties>
    <property name="Water" value="T"/>
   </properties>
  </tile>
  <tile id="1714">
   <properties>
    <property name="Water" value="T"/>
   </properties>
  </tile>
  <tile id="1715">
   <properties>
    <property name="Water" value="T"/>
   </properties>
  </tile>
  <tile id="1716">
   <properties>
    <property name="Water" value="T"/>
   </properties>
  </tile>
  <tile id="1717">
   <properties>
    <property name="Water" value="T"/>
   </properties>
  </tile>
  <tile id="1718">
   <properties>
    <property name="Water" value="T"/>
   </properties>
  </tile>
  <tile id="1747">
   <properties>
    <property name="Water" value="T"/>
   </properties>
  </tile>
  <tile id="1748">
   <properties>
    <property name="Water" value="T"/>
   </properties>
  </tile>
  <tile id="1749">
   <properties>
    <property name="Water" value="T"/>
   </properties>
  </tile>
  <tile id="1750">
   <properties>
    <property name="Water" value="T"/>
   </properties>
  </tile>
  <tile id="1753">
   <properties>
    <property name="Water" value="T"/>
   </properties>
  </tile>
  <tile id="1754">
   <properties>
    <property name="Water" value="T"/>
   </properties>
  </tile>
  <tile id="1778">
   <properties>
    <property name="Water" value="T"/>
   </properties>
  </tile>
  <tile id="1779">
   <properties>
    <property name="Water" value="T"/>
   </properties>
  </tile>
  <tile id="1780">
   <properties>
    <property name="Water" value="T"/>
   </properties>
  </tile>
  <tile id="1781">
   <properties>
    <property name="Water" value="T"/>
   </properties>
  </tile>
  <tile id="1782">
   <properties>
    <property name="Water" value="T"/>
   </properties>
  </tile>
  <tile id="1783">
   <properties>
    <property name="Water" value="T"/>
   </properties>
  </tile>
  <tile id="1784">
   <properties>
    <property name="Water" value="T"/>
   </properties>
  </tile>
  <tile id="1785">
   <properties>
    <property name="Water" value="T"/>
   </properties>
  </tile>
  <tile id="1786">
   <properties>
    <property name="Water" value="T"/>
   </properties>
  </tile>
  <tile id="1810">
   <properties>
    <property name="Water" value="T"/>
   </properties>
  </tile>
  <tile id="1811">
   <properties>
    <property name="Water" value="T"/>
   </properties>
  </tile>
  <tile id="1812">
   <properties>
    <property name="Water" value="T"/>
   </properties>
  </tile>
  <tile id="1813">
   <properties>
    <property name="Water" value="T"/>
   </properties>
  </tile>
  <tile id="1814">
   <properties>
    <property name="Water" value="T"/>
   </properties>
  </tile>
  <tile id="1815">
   <properties>
    <property name="Water" value="T"/>
   </properties>
  </tile>
  <tile id="1816">
   <properties>
    <property name="Water" value="T"/>
   </properties>
  </tile>
  <tile id="1817">
   <properties>
    <property name="Water" value="T"/>
   </properties>
  </tile>
  <tile id="1818">
   <properties>
    <property name="Water" value="T"/>
   </properties>
  </tile>
 </tileset>
 <tileset firstgid="2081" name="untitled tile sheet2" tilewidth="16" tileheight="16" tilecount="1975" columns="25">
  <image source="summer_outdoorsTileSheet" width="400" height="1264"/>
 </tileset>
 <tileset firstgid="4056" name="z-outdoors" tilewidth="16" tileheight="16" tilecount="1975" columns="25">
  <image source="spring_outdoorsTileSheet" width="400" height="1264"/>
  <tile id="150">
   <properties>
    <property name="Buildable" type="bool" value="true"/>
    <property name="Type" value="Grass"/>
   </properties>
  </tile>
  <tile id="151">
   <properties>
    <property name="Buildable" type="bool" value="true"/>
    <property name="Type" value="Grass"/>
   </properties>
   <animation>
    <frame tileid="151" duration="950"/>
    <frame tileid="152" duration="950"/>
   </animation>
  </tile>
  <tile id="152">
   <properties>
    <property name="Buildable" type="bool" value="true"/>
    <property name="Type" value="Grass"/>
   </properties>
  </tile>
  <tile id="153">
   <properties>
    <property name="Diggable" value="T"/>
   </properties>
  </tile>
  <tile id="156">
   <properties>
    <property name="Buildable" type="bool" value="true"/>
    <property name="Type" value="Grass"/>
   </properties>
  </tile>
  <tile id="175">
   <properties>
    <property name="Buildable" type="bool" value="true"/>
    <property name="Type" value="Grass"/>
   </properties>
  </tile>
  <tile id="176">
   <properties>
    <property name="Diggable" value="T"/>
   </properties>
  </tile>
  <tile id="177">
   <properties>
    <property name="Buildable" type="bool" value="true"/>
    <property name="CanPlantTrees" value="T"/>
    <property name="NoSpawn" value="T"/>
    <property name="Type" value="Dirt"/>
   </properties>
  </tile>
  <tile id="178">
   <properties>
    <property name="Buildable" type="bool" value="true"/>
   </properties>
  </tile>
  <tile id="179">
   <properties>
    <property name="Buildable" type="bool" value="true"/>
    <property name="CanPlantTrees" value="T"/>
    <property name="NoSpawn" value="T"/>
    <property name="Type" value="Grass"/>
   </properties>
  </tile>
  <tile id="180">
   <properties>
    <property name="Buildable" type="bool" value="true"/>
    <property name="CanPlantTrees" value="T"/>
    <property name="NoSpawn" value="T"/>
    <property name="Type" value="Grass"/>
   </properties>
  </tile>
  <tile id="181">
   <properties>
    <property name="Buildable" type="bool" value="true"/>
    <property name="Type" value="Dirt"/>
   </properties>
  </tile>
  <tile id="182">
   <properties>
    <property name="Buildable" type="bool" value="true"/>
    <property name="Type" value="Dirt"/>
   </properties>
  </tile>
  <tile id="183">
   <animation>
    <frame tileid="183" duration="1000"/>
    <frame tileid="1182" duration="1000"/>
   </animation>
  </tile>
  <tile id="184">
   <animation>
    <frame tileid="184" duration="1000"/>
    <frame tileid="1183" duration="1000"/>
   </animation>
  </tile>
  <tile id="185">
   <animation>
    <frame tileid="185" duration="1000"/>
    <frame tileid="1184" duration="1000"/>
   </animation>
  </tile>
  <tile id="200">
   <properties>
    <property name="Buildable" type="bool" value="true"/>
    <property name="CanPlantTrees" value="T"/>
    <property name="NoSpawn" value="T"/>
    <property name="Type" value="Grass"/>
   </properties>
  </tile>
  <tile id="201">
   <properties>
    <property name="Buildable" type="bool" value="true"/>
    <property name="CanPlantTrees" value="T"/>
    <property name="NoSpawn" value="T"/>
   </properties>
  </tile>
  <tile id="202">
   <properties>
    <property name="Buildable" type="bool" value="true"/>
    <property name="CanPlantTrees" value="T"/>
    <property name="NoSpawn" value="T"/>
    <property name="Type" value="Dirt"/>
   </properties>
  </tile>
  <tile id="203">
   <properties>
    <property name="Buildable" type="bool" value="true"/>
    <property name="CanPlantTrees" value="T"/>
    <property name="NoSpawn" value="T"/>
    <property name="Type" value="Grass"/>
   </properties>
  </tile>
  <tile id="204">
   <properties>
    <property name="Buildable" type="bool" value="true"/>
   </properties>
  </tile>
  <tile id="205">
   <properties>
    <property name="Buildable" type="bool" value="true"/>
    <property name="CanPlantTrees" value="T"/>
    <property name="NoSpawn" value="T"/>
    <property name="Type" value="Grass"/>
   </properties>
  </tile>
  <tile id="206">
   <properties>
    <property name="Diggable" value="T"/>
    <property name="Type" value="Dirt"/>
   </properties>
  </tile>
  <tile id="207">
   <properties>
    <property name="Diggable" value="T"/>
    <property name="Type" value="Dirt"/>
   </properties>
  </tile>
  <tile id="208">
   <animation>
    <frame tileid="208" duration="1000"/>
    <frame tileid="1207" duration="1000"/>
   </animation>
  </tile>
  <tile id="209">
   <properties>
    <property name="Water" value="T"/>
   </properties>
   <animation>
    <frame tileid="209" duration="1000"/>
    <frame tileid="1208" duration="1000"/>
   </animation>
  </tile>
  <tile id="210">
   <animation>
    <frame tileid="210" duration="1000"/>
    <frame tileid="1209" duration="1000"/>
   </animation>
  </tile>
  <tile id="211">
   <animation>
    <frame tileid="211" duration="1000"/>
    <frame tileid="1210" duration="1000"/>
   </animation>
  </tile>
  <tile id="225">
   <properties>
    <property name="Buildable" type="bool" value="true"/>
    <property name="CanPlantTrees" value="T"/>
    <property name="NoSpawn" value="T"/>
    <property name="Type" value="Dirt"/>
   </properties>
  </tile>
  <tile id="226">
   <properties>
    <property name="Diggable" value="T"/>
   </properties>
  </tile>
  <tile id="227">
   <properties>
    <property name="Diggable" value="T"/>
    <property name="Type" value="Dirt"/>
   </properties>
  </tile>
  <tile id="228">
   <properties>
    <property name="Buildable" type="bool" value="true"/>
    <property name="CanPlantTrees" value="T"/>
    <property name="NoSpawn" value="T"/>
    <property name="Type" value="Dirt"/>
   </properties>
  </tile>
  <tile id="229">
   <properties>
    <property name="Buildable" type="bool" value="true"/>
   </properties>
  </tile>
  <tile id="230">
   <properties>
    <property name="Buildable" type="bool" value="true"/>
   </properties>
  </tile>
  <tile id="231">
   <properties>
    <property name="Diggable" value="T"/>
    <property name="Type" value="Dirt"/>
   </properties>
  </tile>
  <tile id="234">
   <properties>
    <property name="Water" value="T"/>
   </properties>
  </tile>
  <tile id="235">
   <animation>
    <frame tileid="235" duration="1000"/>
    <frame tileid="1290" duration="1000"/>
   </animation>
  </tile>
  <tile id="250">
   <properties>
    <property name="Buildable" type="bool" value="true"/>
    <property name="Type" value="Grass"/>
   </properties>
  </tile>
  <tile id="251">
   <properties>
    <property name="Buildable" type="bool" value="true"/>
    <property name="Type" value="Dirt"/>
   </properties>
  </tile>
  <tile id="252">
   <properties>
    <property name="Buildable" type="bool" value="true"/>
   </properties>
  </tile>
  <tile id="253">
   <properties>
    <property name="Buildable" type="bool" value="true"/>
    <property name="Type" value="Grass"/>
   </properties>
  </tile>
  <tile id="254">
   <properties>
    <property name="Buildable" type="bool" value="true"/>
    <property name="Type" value="Grass"/>
   </properties>
  </tile>
  <tile id="255">
   <properties>
    <property name="Buildable" type="bool" value="true"/>
    <property name="Type" value="Grass"/>
   </properties>
  </tile>
  <tile id="256">
   <properties>
    <property name="Buildable" type="bool" value="true"/>
    <property name="Type" value="Grass"/>
   </properties>
  </tile>
  <tile id="258">
   <animation>
    <frame tileid="258" duration="1000"/>
    <frame tileid="1257" duration="1000"/>
   </animation>
  </tile>
  <tile id="260">
   <animation>
    <frame tileid="260" duration="1000"/>
    <frame tileid="1315" duration="1000"/>
   </animation>
  </tile>
  <tile id="261">
   <properties>
    <property name="Buildable" type="bool" value="true"/>
   </properties>
  </tile>
  <tile id="275">
   <properties>
    <property name="Buildable" type="bool" value="true"/>
    <property name="Type" value="Grass"/>
   </properties>
  </tile>
  <tile id="276">
   <properties>
    <property name="Buildable" type="bool" value="true"/>
   </properties>
  </tile>
  <tile id="277">
   <properties>
    <property name="Buildable" type="bool" value="true"/>
   </properties>
  </tile>
  <tile id="278">
   <properties>
    <property name="Buildable" type="bool" value="true"/>
   </properties>
  </tile>
  <tile id="279">
   <properties>
    <property name="Buildable" type="bool" value="true"/>
   </properties>
  </tile>
  <tile id="281">
   <properties>
    <property name="Buildable" type="bool" value="true"/>
    <property name="Type" value="Grass"/>
   </properties>
  </tile>
  <tile id="283">
   <animation>
    <frame tileid="283" duration="1000"/>
    <frame tileid="1312" duration="1000"/>
   </animation>
  </tile>
  <tile id="284">
   <animation>
    <frame tileid="284" duration="1000"/>
    <frame tileid="1313" duration="1000"/>
   </animation>
  </tile>
  <tile id="286">
   <properties>
    <property name="Buildable" type="bool" value="true"/>
   </properties>
  </tile>
  <tile id="288">
   <properties>
    <property name="NoSpawn" value="All"/>
   </properties>
  </tile>
  <tile id="289">
   <properties>
    <property name="NoSpawn" value="All"/>
   </properties>
  </tile>
  <tile id="300">
   <properties>
    <property name="Buildable" type="bool" value="true"/>
    <property name="Type" value="Grass"/>
   </properties>
  </tile>
  <tile id="301">
   <properties>
    <property name="Buildable" type="bool" value="true"/>
    <property name="Type" value="Grass"/>
   </properties>
  </tile>
  <tile id="302">
   <properties>
    <property name="Buildable" type="bool" value="true"/>
    <property name="Type" value="Grass"/>
   </properties>
  </tile>
  <tile id="303">
   <properties>
    <property name="Buildable" type="bool" value="true"/>
    <property name="Type" value="Grass"/>
   </properties>
  </tile>
  <tile id="304">
   <properties>
    <property name="Buildable" type="bool" value="true"/>
    <property name="Type" value="Grass"/>
   </properties>
  </tile>
  <tile id="305">
   <properties>
    <property name="Buildable" type="bool" value="true"/>
    <property name="Type" value="Grass"/>
   </properties>
  </tile>
  <tile id="306">
   <properties>
    <property name="Buildable" type="bool" value="true"/>
    <property name="Type" value="Grass"/>
   </properties>
  </tile>
  <tile id="308">
   <animation>
    <frame tileid="308" duration="1000"/>
    <frame tileid="1316" duration="1000"/>
   </animation>
  </tile>
  <tile id="309">
   <animation>
    <frame tileid="309" duration="1000"/>
    <frame tileid="1317" duration="1000"/>
   </animation>
  </tile>
  <tile id="311">
   <properties>
    <property name="Buildable" type="bool" value="true"/>
   </properties>
  </tile>
  <tile id="312">
   <properties>
    <property name="NoSpawn" value="All"/>
    <property name="Type" value="Wood"/>
   </properties>
  </tile>
  <tile id="313">
   <properties>
    <property name="NoSpawn" value="All"/>
    <property name="Type" value="Wood"/>
   </properties>
  </tile>
  <tile id="314">
   <properties>
    <property name="NoSpawn" value="All"/>
    <property name="Type" value="Wood"/>
   </properties>
  </tile>
  <tile id="322">
   <properties>
    <property name="NoSpawn" value="All"/>
    <property name="Type" value="Wood"/>
   </properties>
  </tile>
  <tile id="325">
   <properties>
    <property name="Buildable" type="bool" value="true"/>
    <property name="Type" value="Grass"/>
   </properties>
  </tile>
  <tile id="326">
   <properties>
    <property name="Buildable" type="bool" value="true"/>
    <property name="Type" value="Grass"/>
   </properties>
  </tile>
  <tile id="327">
   <properties>
    <property name="Buildable" type="bool" value="true"/>
    <property name="Type" value="Grass"/>
   </properties>
  </tile>
  <tile id="328">
   <properties>
    <property name="Buildable" type="bool" value="true"/>
    <property name="Type" value="Grass"/>
   </properties>
  </tile>
  <tile id="329">
   <properties>
    <property name="Buildable" type="bool" value="true"/>
    <property name="Type" value="Grass"/>
   </properties>
  </tile>
  <tile id="331">
   <properties>
    <property name="Buildable" type="bool" value="true"/>
    <property name="Type" value="Grass"/>
   </properties>
  </tile>
  <tile id="332">
   <properties>
    <property name="Buildable" type="bool" value="true"/>
    <property name="Type" value="Grass"/>
   </properties>
  </tile>
  <tile id="337">
   <properties>
    <property name="NoSpawn" value="All"/>
    <property name="Type" value="Wood"/>
   </properties>
  </tile>
  <tile id="338">
   <properties>
    <property name="NoSpawn" value="All"/>
    <property name="Type" value="Wood"/>
   </properties>
  </tile>
  <tile id="339">
   <properties>
    <property name="NoSpawn" value="All"/>
    <property name="Type" value="Wood"/>
   </properties>
  </tile>
  <tile id="347">
   <properties>
    <property name="NoSpawn" value="All"/>
    <property name="Type" value="Wood"/>
   </properties>
  </tile>
  <tile id="350">
   <properties>
    <property name="Buildable" type="bool" value="true"/>
    <property name="Type" value="Grass"/>
   </properties>
  </tile>
  <tile id="351">
   <properties>
    <property name="Buildable" type="bool" value="true"/>
    <property name="Type" value="Grass"/>
   </properties>
  </tile>
  <tile id="352">
   <properties>
    <property name="Buildable" type="bool" value="true"/>
    <property name="Type" value="Grass"/>
   </properties>
  </tile>
  <tile id="353">
   <properties>
    <property name="Buildable" type="bool" value="true"/>
    <property name="Type" value="Grass"/>
   </properties>
  </tile>
  <tile id="354">
   <properties>
    <property name="Buildable" type="bool" value="true"/>
    <property name="Type" value="Grass"/>
   </properties>
  </tile>
  <tile id="355">
   <properties>
    <property name="Buildable" type="bool" value="true"/>
    <property name="Type" value="Grass"/>
   </properties>
  </tile>
  <tile id="356">
   <properties>
    <property name="Buildable" type="bool" value="true"/>
    <property name="Type" value="Grass"/>
   </properties>
  </tile>
  <tile id="357">
   <properties>
    <property name="Buildable" type="bool" value="true"/>
    <property name="Type" value="Grass"/>
   </properties>
  </tile>
  <tile id="375">
   <properties>
    <property name="Buildable" type="bool" value="true"/>
    <property name="Type" value="Grass"/>
   </properties>
  </tile>
  <tile id="376">
   <properties>
    <property name="Buildable" type="bool" value="true"/>
    <property name="Type" value="Grass"/>
   </properties>
  </tile>
  <tile id="377">
   <properties>
    <property name="Buildable" type="bool" value="true"/>
    <property name="Type" value="Grass"/>
   </properties>
  </tile>
  <tile id="378">
   <properties>
    <property name="Buildable" type="bool" value="true"/>
    <property name="Type" value="Grass"/>
   </properties>
  </tile>
  <tile id="379">
   <properties>
    <property name="Buildable" type="bool" value="true"/>
    <property name="Type" value="Grass"/>
   </properties>
  </tile>
  <tile id="380">
   <properties>
    <property name="Buildable" type="bool" value="true"/>
    <property name="Type" value="Grass"/>
   </properties>
  </tile>
  <tile id="381">
   <properties>
    <property name="Buildable" type="bool" value="true"/>
    <property name="Type" value="Grass"/>
   </properties>
  </tile>
  <tile id="382">
   <properties>
    <property name="Buildable" type="bool" value="true"/>
    <property name="Type" value="Grass"/>
   </properties>
  </tile>
  <tile id="397">
   <properties>
    <property name="NoSpawn" value="All"/>
    <property name="Type" value="Wood"/>
   </properties>
  </tile>
  <tile id="400">
   <properties>
    <property name="Buildable" type="bool" value="true"/>
    <property name="CanPlantTrees" value="T"/>
    <property name="Type" value="Grass"/>
   </properties>
  </tile>
  <tile id="401">
   <properties>
    <property name="Buildable" type="bool" value="true"/>
    <property name="CanPlantTrees" value="T"/>
    <property name="NoSpawn" value="T"/>
    <property name="Type" value="Grass"/>
   </properties>
  </tile>
  <tile id="402">
   <properties>
    <property name="Buildable" type="bool" value="true"/>
    <property name="Type" value="Grass"/>
   </properties>
  </tile>
  <tile id="403">
   <properties>
    <property name="Buildable" type="bool" value="true"/>
    <property name="Type" value="Grass"/>
   </properties>
  </tile>
  <tile id="404">
   <properties>
    <property name="Buildable" type="bool" value="true"/>
    <property name="Type" value="Grass"/>
   </properties>
  </tile>
  <tile id="405">
   <properties>
    <property name="Buildable" type="bool" value="true"/>
    <property name="Type" value="Grass"/>
   </properties>
  </tile>
  <tile id="406">
   <properties>
    <property name="Buildable" type="bool" value="true"/>
    <property name="Type" value="Grass"/>
   </properties>
  </tile>
  <tile id="407">
   <properties>
    <property name="Buildable" type="bool" value="true"/>
    <property name="Type" value="Grass"/>
   </properties>
  </tile>
  <tile id="420">
   <properties>
    <property name="Buildable" type="bool" value="true"/>
   </properties>
  </tile>
  <tile id="421">
   <properties>
    <property name="Buildable" type="bool" value="true"/>
   </properties>
  </tile>
  <tile id="422">
   <properties>
    <property name="Buildable" type="bool" value="true"/>
   </properties>
  </tile>
  <tile id="423">
   <properties>
    <property name="Buildable" type="bool" value="true"/>
   </properties>
  </tile>
  <tile id="436">
   <properties>
    <property name="Type" value="Wood"/>
   </properties>
  </tile>
  <tile id="456">
   <properties>
    <property name="Type" value="Dirt"/>
   </properties>
  </tile>
  <tile id="460">
   <properties>
    <property name="NoSpawn" type="bool" value="true"/>
   </properties>
  </tile>
  <tile id="463">
   <properties>
    <property name="Diggable" value="T"/>
    <property name="Type" value="Dirt"/>
   </properties>
  </tile>
  <tile id="471">
   <properties>
    <property name="Diggable" value="T"/>
    <property name="Type" value="Dirt"/>
   </properties>
  </tile>
  <tile id="472">
   <properties>
    <property name="Diggable" value="T"/>
    <property name="Type" value="Dirt"/>
   </properties>
  </tile>
  <tile id="473">
   <properties>
    <property name="Diggable" value="T"/>
    <property name="Type" value="Dirt"/>
   </properties>
  </tile>
  <tile id="480">
   <properties>
    <property name="Type" value="Dirt"/>
   </properties>
  </tile>
  <tile id="481">
   <properties>
    <property name="Type" value="Dirt"/>
   </properties>
  </tile>
  <tile id="482">
   <properties>
    <property name="Type" value="Dirt"/>
   </properties>
  </tile>
  <tile id="488">
   <properties>
    <property name="Diggable" value="T"/>
    <property name="Type" value="Dirt"/>
   </properties>
  </tile>
  <tile id="499">
   <properties>
    <property name="Type" value="Dirt"/>
   </properties>
  </tile>
  <tile id="505">
   <properties>
    <property name="Type" value="Dirt"/>
   </properties>
  </tile>
  <tile id="506">
   <properties>
    <property name="Type" value="Dirt"/>
   </properties>
  </tile>
  <tile id="509">
   <properties>
    <property name="NoSpawn" value="T"/>
   </properties>
  </tile>
  <tile id="512">
   <properties>
    <property name="Buildable" value="T"/>
    <property name="NoSpawn" value="Tree"/>
    <property name="Type" value="Dirt"/>
   </properties>
  </tile>
  <tile id="513">
   <properties>
    <property name="Diggable" value="T"/>
    <property name="Type" value="Dirt"/>
   </properties>
  </tile>
  <tile id="524">
   <properties>
    <property name="Type" value="Dirt"/>
   </properties>
  </tile>
  <tile id="530">
   <properties>
    <property name="Type" value="Dirt"/>
   </properties>
  </tile>
  <tile id="531">
   <properties>
    <property name="Type" value="Dirt"/>
   </properties>
  </tile>
  <tile id="532">
   <properties>
    <property name="Type" value="Dirt"/>
   </properties>
  </tile>
  <tile id="534">
   <properties>
    <property name="NoSpawn" value="T"/>
   </properties>
  </tile>
  <tile id="536">
   <properties>
    <property name="Buildable" value="T"/>
   </properties>
  </tile>
  <tile id="537">
   <properties>
    <property name="Buildable" value="T"/>
    <property name="NoSpawn" value="Tree"/>
    <property name="Type" value="Dirt"/>
   </properties>
  </tile>
  <tile id="538">
   <properties>
    <property name="Buildable" value="T"/>
   </properties>
  </tile>
  <tile id="549">
   <properties>
    <property name="Type" value="Dirt"/>
   </properties>
  </tile>
  <tile id="555">
   <properties>
    <property name="Type" value="Dirt"/>
   </properties>
  </tile>
  <tile id="556">
   <properties>
    <property name="Buildable" type="bool" value="true"/>
    <property name="Type" value="Dirt"/>
   </properties>
  </tile>
  <tile id="557">
   <properties>
    <property name="Type" value="Dirt"/>
   </properties>
  </tile>
  <tile id="558">
   <properties>
    <property name="Buildable" type="bool" value="true"/>
    <property name="Type" value="Dirt"/>
   </properties>
  </tile>
  <tile id="560">
   <properties>
    <property name="Diggable" value="T"/>
    <property name="Type" value="Dirt"/>
   </properties>
  </tile>
  <tile id="561">
   <properties>
    <property name="Buildable" value="T"/>
    <property name="NoSpawn" value="Tree"/>
    <property name="Type" value="Dirt"/>
   </properties>
  </tile>
  <tile id="562">
   <properties>
    <property name="Buildable" value="T"/>
    <property name="NoSpawn" value="Tree"/>
    <property name="Type" value="Dirt"/>
   </properties>
  </tile>
  <tile id="563">
   <properties>
    <property name="Buildable" value="T"/>
    <property name="NoSpawn" value="Trees"/>
    <property name="Type" value="Dirt"/>
   </properties>
  </tile>
  <tile id="564">
   <properties>
    <property name="Diggable" value="T"/>
   </properties>
  </tile>
  <tile id="565">
   <properties>
    <property name="Buildable" value="T"/>
    <property name="NoSpawn" value="T"/>
    <property name="Type" value="Dirt"/>
   </properties>
  </tile>
  <tile id="566">
   <properties>
    <property name="Buildable" value="T"/>
    <property name="NoSpawn" value="Tree"/>
    <property name="Type" value="Dirt"/>
   </properties>
  </tile>
  <tile id="571">
   <properties>
    <property name="Type" value="Dirt"/>
   </properties>
  </tile>
  <tile id="572">
   <properties>
    <property name="Type" value="Dirt"/>
   </properties>
  </tile>
  <tile id="573">
   <properties>
    <property name="Type" value="Dirt"/>
   </properties>
  </tile>
  <tile id="574">
   <properties>
    <property name="Type" value="Dirt"/>
   </properties>
  </tile>
  <tile id="580">
   <properties>
    <property name="Type" value="Dirt"/>
   </properties>
  </tile>
  <tile id="581">
   <properties>
    <property name="Type" value="Dirt"/>
   </properties>
  </tile>
  <tile id="582">
   <properties>
    <property name="Type" value="Dirt"/>
   </properties>
  </tile>
  <tile id="583">
   <properties>
    <property name="Buildable" type="bool" value="true"/>
    <property name="Type" value="Dirt"/>
   </properties>
  </tile>
  <tile id="585">
   <properties>
    <property name="Diggable" value="T"/>
    <property name="Type" value="Dirt"/>
   </properties>
  </tile>
  <tile id="586">
   <properties>
    <property name="Buildable" value="T"/>
   </properties>
  </tile>
  <tile id="587">
   <properties>
    <property name="Diggable" value="T"/>
    <property name="Type" value="Dirt"/>
   </properties>
  </tile>
  <tile id="588">
   <properties>
    <property name="Buildable" value="T"/>
    <property name="Type" value="Dirt"/>
   </properties>
  </tile>
  <tile id="589">
   <properties>
    <property name="Diggable" value="T"/>
    <property name="Type" value="Dirt"/>
   </properties>
  </tile>
  <tile id="591">
   <properties>
    <property name="Buildable" value="T"/>
    <property name="NoSpawn" value="Tree"/>
    <property name="Type" value="Dirt"/>
   </properties>
  </tile>
  <tile id="596">
   <properties>
    <property name="Type" value="Dirt"/>
   </properties>
  </tile>
  <tile id="597">
   <properties>
    <property name="Type" value="Dirt"/>
   </properties>
  </tile>
  <tile id="598">
   <properties>
    <property name="Type" value="Stone"/>
   </properties>
  </tile>
  <tile id="599">
   <properties>
    <property name="Type" value="Stone"/>
   </properties>
  </tile>
  <tile id="606">
   <properties>
    <property name="Buildable" type="bool" value="true"/>
    <property name="Type" value="Dirt"/>
   </properties>
  </tile>
  <tile id="607">
   <properties>
    <property name="Buildable" type="bool" value="true"/>
    <property name="Type" value="Dirt"/>
   </properties>
  </tile>
  <tile id="608">
   <properties>
    <property name="Buildable" type="bool" value="true"/>
    <property name="Type" value="Dirt"/>
   </properties>
  </tile>
  <tile id="610">
   <properties>
    <property name="Diggable" value="T"/>
    <property name="Type" value="Dirt"/>
   </properties>
  </tile>
  <tile id="611">
   <properties>
    <property name="Buildable" value="T"/>
   </properties>
  </tile>
  <tile id="612">
   <properties>
    <property name="Buildable" value="T"/>
    <property name="Type" value="Dirt"/>
   </properties>
  </tile>
  <tile id="613">
   <properties>
    <property name="Buildable" type="bool" value="true"/>
   </properties>
  </tile>
  <tile id="614">
   <properties>
    <property name="Diggable" value="T"/>
    <property name="Type" value="Dirt"/>
   </properties>
  </tile>
  <tile id="615">
   <properties>
    <property name="Buildable" value="T"/>
   </properties>
  </tile>
  <tile id="616">
   <properties>
    <property name="Buildable" value="T"/>
    <property name="Type" value="Dirt"/>
   </properties>
  </tile>
  <tile id="618">
   <properties>
    <property name="Buildable" value="T"/>
    <property name="Type" value="Dirt"/>
   </properties>
  </tile>
  <tile id="621">
   <properties>
    <property name="Type" value="Dirt"/>
   </properties>
  </tile>
  <tile id="622">
   <properties>
    <property name="Type" value="Dirt"/>
   </properties>
  </tile>
  <tile id="623">
   <properties>
    <property name="Type" value="Dirt"/>
   </properties>
  </tile>
  <tile id="624">
   <properties>
    <property name="Type" value="Dirt"/>
   </properties>
  </tile>
  <tile id="633">
   <properties>
    <property name="Buildable" type="bool" value="true"/>
    <property name="Type" value="Grass"/>
   </properties>
  </tile>
  <tile id="634">
   <properties>
    <property name="Buildable" type="bool" value="true"/>
    <property name="Type" value="Grass"/>
   </properties>
  </tile>
  <tile id="635">
   <properties>
    <property name="Buildable" type="bool" value="true"/>
    <property name="Type" value="Dirt"/>
   </properties>
  </tile>
  <tile id="636">
   <properties>
    <property name="Buildable" type="bool" value="true"/>
    <property name="Type" value="Dirt"/>
   </properties>
  </tile>
  <tile id="645">
   <properties>
    <property name="Buildable" value="T"/>
    <property name="NoSpawn" value="Tree"/>
    <property name="Type" value="Dirt"/>
   </properties>
  </tile>
  <tile id="654">
   <properties>
    <property name="Buildable" type="bool" value="true"/>
    <property name="Type" value="Grass"/>
   </properties>
  </tile>
  <tile id="655">
   <properties>
    <property name="Buildable" type="bool" value="true"/>
   </properties>
  </tile>
  <tile id="656">
   <properties>
    <property name="Buildable" type="bool" value="true"/>
    <property name="Type" value="Dirt"/>
   </properties>
  </tile>
  <tile id="657">
   <properties>
    <property name="Buildable" type="bool" value="true"/>
    <property name="Type" value="Grass"/>
   </properties>
  </tile>
  <tile id="658">
   <properties>
    <property name="Buildable" type="bool" value="true"/>
    <property name="Type" value="Grass"/>
   </properties>
  </tile>
  <tile id="659">
   <properties>
    <property name="Buildable" type="bool" value="true"/>
    <property name="Type" value="Grass"/>
   </properties>
  </tile>
  <tile id="670">
   <properties>
    <property name="Buildable" value="T"/>
    <property name="NoSpawn" value="Tree"/>
    <property name="Type" value="Dirt"/>
   </properties>
  </tile>
  <tile id="680">
   <properties>
    <property name="Type" value="Dirt"/>
   </properties>
  </tile>
  <tile id="681">
   <properties>
    <property name="Type" value="Dirt"/>
   </properties>
  </tile>
  <tile id="682">
   <properties>
    <property name="Buildable" type="bool" value="true"/>
   </properties>
  </tile>
  <tile id="683">
   <properties>
    <property name="Buildable" type="bool" value="true"/>
   </properties>
  </tile>
  <tile id="684">
   <properties>
    <property name="Buildable" type="bool" value="true"/>
   </properties>
  </tile>
  <tile id="685">
   <properties>
    <property name="Buildable" type="bool" value="true"/>
    <property name="Type" value="Dirt"/>
   </properties>
  </tile>
  <tile id="704">
   <properties>
    <property name="Buildable" type="bool" value="true"/>
    <property name="Type" value="Grass"/>
   </properties>
  </tile>
  <tile id="705">
   <properties>
    <property name="Buildable" type="bool" value="true"/>
   </properties>
  </tile>
  <tile id="706">
   <properties>
    <property name="Buildable" type="bool" value="true"/>
    <property name="Type" value="Dirt"/>
   </properties>
  </tile>
  <tile id="707">
   <properties>
    <property name="Buildable" type="bool" value="true"/>
    <property name="Type" value="Grass"/>
   </properties>
  </tile>
  <tile id="720">
   <properties>
    <property name="Type" value="Dirt"/>
   </properties>
  </tile>
  <tile id="745">
   <properties>
    <property name="Type" value="Dirt"/>
   </properties>
  </tile>
  <tile id="779">
   <properties>
    <property name="NoSpawn" value="All"/>
    <property name="Passable" value="T"/>
    <property name="Type" value="Wood"/>
   </properties>
  </tile>
  <tile id="780">
   <properties>
    <property name="NoSpawn" value="All"/>
    <property name="Passable" value="T"/>
    <property name="Type" value="Wood"/>
   </properties>
  </tile>
  <tile id="781">
   <properties>
    <property name="NoSpawn" value="All"/>
    <property name="Passable" value="T"/>
    <property name="Type" value="Wood"/>
   </properties>
  </tile>
  <tile id="782">
   <properties>
    <property name="NoSpawn" value="All"/>
    <property name="Passable" value="T"/>
    <property name="Type" value="Wood"/>
   </properties>
  </tile>
  <tile id="809">
   <properties>
    <property name="NPCBarrier" value="T"/>
    <property name="NoSpawn" value="All"/>
    <property name="Type" value="Wood"/>
   </properties>
  </tile>
  <tile id="812">
   <properties>
    <property name="NoSpawn" value="All"/>
    <property name="Type" value="Stone"/>
   </properties>
  </tile>
  <tile id="834">
   <properties>
    <property name="Passable" value="T"/>
    <property name="Type" value="Wood"/>
   </properties>
  </tile>
  <tile id="838">
   <properties>
    <property name="NoSpawn" value="All"/>
    <property name="Type" value="Stone"/>
   </properties>
  </tile>
  <tile id="859">
   <properties>
    <property name="Passable" value="T"/>
    <property name="Type" value="Wood"/>
   </properties>
  </tile>
  <tile id="860">
   <properties>
    <property name="Passable" value="T"/>
    <property name="Type" value="Wood"/>
   </properties>
  </tile>
  <tile id="884">
   <properties>
    <property name="Passable" value="T"/>
    <property name="Type" value="Wood"/>
   </properties>
  </tile>
  <tile id="885">
   <properties>
    <property name="Passable" value="T"/>
    <property name="Type" value="Wood"/>
   </properties>
  </tile>
  <tile id="910">
   <properties>
    <property name="Passable" value="T"/>
    <property name="Type" value="Wood"/>
   </properties>
  </tile>
  <tile id="1186">
   <properties>
    <property name="Water" value="T"/>
   </properties>
  </tile>
  <tile id="1187">
   <properties>
    <property name="Water" value="T"/>
   </properties>
  </tile>
  <tile id="1188">
   <properties>
    <property name="Water" value="T"/>
   </properties>
  </tile>
  <tile id="1211">
   <properties>
    <property name="Water" value="T"/>
   </properties>
  </tile>
  <tile id="1212">
   <properties>
    <property name="Water" value="T"/>
   </properties>
  </tile>
  <tile id="1213">
   <properties>
    <property name="Water" value="T"/>
   </properties>
  </tile>
  <tile id="1227">
   <properties>
    <property name="Water" value="T"/>
   </properties>
  </tile>
  <tile id="1228">
   <properties>
    <property name="Water" value="T"/>
   </properties>
  </tile>
  <tile id="1229">
   <properties>
    <property name="Water" value="T"/>
   </properties>
  </tile>
  <tile id="1230">
   <properties>
    <property name="Water" value="T"/>
   </properties>
  </tile>
  <tile id="1231">
   <properties>
    <property name="Water" value="T"/>
   </properties>
  </tile>
  <tile id="1237">
   <properties>
    <property name="Water" value="T"/>
   </properties>
  </tile>
  <tile id="1238">
   <properties>
    <property name="Water" value="T"/>
   </properties>
  </tile>
  <tile id="1239">
   <properties>
    <property name="Water" value="T"/>
   </properties>
  </tile>
  <tile id="1240">
   <properties>
    <property name="Water" value="T"/>
   </properties>
  </tile>
  <tile id="1241">
   <properties>
    <property name="Water" value="T"/>
   </properties>
  </tile>
  <tile id="1242">
   <properties>
    <property name="Water" value="T"/>
   </properties>
  </tile>
  <tile id="1243">
   <properties>
    <property name="Water" value="T"/>
   </properties>
  </tile>
  <tile id="1244">
   <properties>
    <property name="Water" value="T"/>
   </properties>
  </tile>
  <tile id="1245">
   <properties>
    <property name="Water" value="T"/>
   </properties>
  </tile>
  <tile id="1246">
   <properties>
    <property name="Passable" value="F"/>
    <property name="Water" value="T"/>
   </properties>
  </tile>
  <tile id="1247">
   <properties>
    <property name="Water" value="T"/>
   </properties>
  </tile>
  <tile id="1248">
   <properties>
    <property name="Water" value="T"/>
   </properties>
  </tile>
  <tile id="1249">
   <properties>
    <property name="Passable" value="F"/>
    <property name="Water" value="T"/>
   </properties>
  </tile>
  <tile id="1252">
   <properties>
    <property name="Water" value="T"/>
   </properties>
  </tile>
  <tile id="1253">
   <properties>
    <property name="Water" value="T"/>
   </properties>
  </tile>
  <tile id="1254">
   <properties>
    <property name="Water" value="T"/>
   </properties>
  </tile>
  <tile id="1255">
   <properties>
    <property name="Water" value="T"/>
   </properties>
  </tile>
  <tile id="1256">
   <properties>
    <property name="Water" value="T"/>
   </properties>
  </tile>
  <tile id="1263">
   <properties>
    <property name="Water" value="T"/>
   </properties>
  </tile>
  <tile id="1264">
   <properties>
    <property name="Water" value="T"/>
   </properties>
  </tile>
  <tile id="1265">
   <properties>
    <property name="Water" value="T"/>
   </properties>
  </tile>
  <tile id="1266">
   <properties>
    <property name="Passable" value="F"/>
    <property name="Water" value="T"/>
   </properties>
  </tile>
  <tile id="1267">
   <properties>
    <property name="Passable" value="F"/>
    <property name="Water" value="T"/>
   </properties>
  </tile>
  <tile id="1268">
   <properties>
    <property name="Water" value="T"/>
   </properties>
  </tile>
  <tile id="1269">
   <properties>
    <property name="Water" value="T"/>
   </properties>
  </tile>
  <tile id="1270">
   <properties>
    <property name="Water" value="T"/>
   </properties>
  </tile>
  <tile id="1271">
   <properties>
    <property name="Passable" value="F"/>
    <property name="Water" value="T"/>
   </properties>
  </tile>
  <tile id="1272">
   <properties>
    <property name="Water" value="T"/>
   </properties>
  </tile>
  <tile id="1273">
   <properties>
    <property name="Water" value="T"/>
   </properties>
  </tile>
  <tile id="1274">
   <properties>
    <property name="Water" value="T"/>
   </properties>
  </tile>
  <tile id="1277">
   <properties>
    <property name="Water" value="T"/>
   </properties>
  </tile>
  <tile id="1278">
   <properties>
    <property name="Water" value="T"/>
   </properties>
  </tile>
  <tile id="1279">
   <properties>
    <property name="Water" value="T"/>
   </properties>
  </tile>
  <tile id="1280">
   <properties>
    <property name="Water" value="T"/>
   </properties>
  </tile>
  <tile id="1281">
   <properties>
    <property name="Water" value="T"/>
   </properties>
  </tile>
  <tile id="1293">
   <animation>
    <frame tileid="1293" duration="500"/>
    <frame tileid="1294" duration="500"/>
    <frame tileid="1295" duration="500"/>
    <frame tileid="1296" duration="500"/>
   </animation>
  </tile>
  <tile id="1297">
   <properties>
    <property name="Water" value="T"/>
   </properties>
  </tile>
  <tile id="1298">
   <properties>
    <property name="Water" value="T"/>
   </properties>
  </tile>
  <tile id="1299">
   <properties>
    <property name="Passable" value="F"/>
    <property name="Water" value="T"/>
   </properties>
  </tile>
  <tile id="1302">
   <properties>
    <property name="Water" value="T"/>
   </properties>
  </tile>
  <tile id="1303">
   <properties>
    <property name="Water" value="T"/>
   </properties>
  </tile>
  <tile id="1304">
   <properties>
    <property name="Water" value="T"/>
   </properties>
  </tile>
  <tile id="1305">
   <properties>
    <property name="Water" value="T"/>
   </properties>
  </tile>
  <tile id="1306">
   <properties>
    <property name="Water" value="T"/>
   </properties>
  </tile>
  <tile id="1318">
   <animation>
    <frame tileid="1318" duration="450"/>
    <frame tileid="1319" duration="450"/>
    <frame tileid="1320" duration="450"/>
    <frame tileid="1321" duration="450"/>
   </animation>
  </tile>
  <tile id="1322">
   <properties>
    <property name="Water" value="T"/>
   </properties>
  </tile>
  <tile id="1323">
   <properties>
    <property name="Water" value="T"/>
   </properties>
  </tile>
  <tile id="1324">
   <properties>
    <property name="Water" value="T"/>
   </properties>
  </tile>
  <tile id="1637">
   <properties>
    <property name="Type" value="Wood"/>
   </properties>
  </tile>
  <tile id="1638">
   <properties>
    <property name="Type" value="Wood"/>
   </properties>
  </tile>
  <tile id="1639">
   <properties>
    <property name="Type" value="Wood"/>
   </properties>
  </tile>
  <tile id="1662">
   <properties>
    <property name="Type" value="Wood"/>
   </properties>
  </tile>
  <tile id="1663">
   <properties>
    <property name="Type" value="Wood"/>
   </properties>
  </tile>
  <tile id="1664">
   <properties>
    <property name="Type" value="Wood"/>
   </properties>
  </tile>
  <tile id="1687">
   <properties>
    <property name="Type" value="Wood"/>
   </properties>
  </tile>
  <tile id="1688">
   <properties>
    <property name="Type" value="Wood"/>
   </properties>
  </tile>
  <tile id="1689">
   <properties>
    <property name="Type" value="Wood"/>
   </properties>
  </tile>
  <tile id="1937">
   <properties>
    <property name="NoFurniture" value="T"/>
    <property name="NoSpawn" value="All"/>
   </properties>
  </tile>
  <tile id="1957">
   <properties>
    <property name="Type" value="Wood"/>
   </properties>
  </tile>
  <tile id="1958">
   <properties>
    <property name="Type" value="Wood"/>
   </properties>
  </tile>
  <tile id="1962">
   <properties>
    <property name="NoFurniture" value="T"/>
    <property name="NoSpawn" value="All"/>
   </properties>
  </tile>
  <tile id="1963">
   <properties>
    <property name="NoFurniture" value="T"/>
    <property name="NoSpawn" value="All"/>
   </properties>
  </tile>
  <tile id="1964">
   <properties>
    <property name="NoFurniture" value="T"/>
    <property name="NoSpawn" value="All"/>
    <property name="Type" value="Stone"/>
    <property name="placeable" value="F"/>
   </properties>
  </tile>
  <tile id="1965">
   <properties>
    <property name="NoFurniture" value="T"/>
    <property name="NoSpawn" value="All"/>
    <property name="Type" value="Stone"/>
    <property name="placeable" value="f"/>
   </properties>
  </tile>
  <tile id="1966">
   <properties>
    <property name="NoFurniture" value="T"/>
    <property name="NoSpawn" value="All"/>
    <property name="Type" value="Stone"/>
    <property name="placeable" value="f"/>
   </properties>
  </tile>
 </tileset>
 <layer id="1" name="Back" width="43" height="60">
  <data encoding="csv">
136,136,136,136,136,136,136,136,136,136,136,136,136,136,136,136,136,136,136,136,136,136,136,136,136,136,136,136,136,136,136,136,136,136,136,136,136,136,136,136,136,136,136,
136,136,136,136,136,136,136,136,136,136,136,136,136,136,136,136,136,136,136,136,136,136,136,136,136,136,136,136,136,136,136,136,136,136,136,136,136,136,136,136,136,136,136,
136,136,136,136,136,136,136,136,136,136,136,136,136,136,136,136,136,136,136,136,136,136,136,136,136,136,136,136,136,136,136,136,136,136,136,136,136,136,136,136,136,136,136,
136,136,136,136,136,136,136,226,136,136,136,136,136,136,136,136,136,136,136,136,136,136,136,136,136,136,136,136,136,136,136,161,162,136,136,136,136,136,136,136,136,136,136,
136,136,136,236,136,136,136,136,136,136,136,236,136,136,136,136,136,136,136,136,136,136,136,136,136,136,136,136,136,136,136,193,194,136,136,136,136,136,136,136,136,136,136,
136,136,136,136,136,136,136,136,136,136,136,136,136,136,136,226,136,136,136,136,136,136,136,236,136,136,136,136,136,136,136,136,136,136,136,136,136,136,136,136,136,136,136,
136,136,136,136,136,136,136,136,136,136,136,136,136,136,136,136,136,136,136,136,136,136,136,136,136,136,136,136,136,136,136,136,136,136,136,136,136,136,136,136,136,136,136,
136,136,136,136,136,136,136,136,136,136,136,136,236,136,136,136,136,136,136,136,136,136,136,136,136,136,136,136,136,136,136,136,136,136,136,136,136,136,136,136,136,136,136,
136,136,136,136,136,136,136,136,136,136,136,136,136,136,136,136,136,136,136,136,136,136,136,136,136,136,136,136,136,136,136,136,136,136,136,136,136,136,136,136,136,136,136,
136,136,136,136,136,136,136,136,136,136,136,136,136,136,136,2684354569,2684354761,2684354761,3221225704,3221225704,3221225704,2684354761,2684354761,2684354761,3221225704,1610612744,136,136,136,236,136,136,136,226,136,136,136,136,136,136,136,136,136,
136,136,136,136,136,136,136,136,136,136,136,136,2684354569,2684354761,2684354761,200,200,200,200,200,200,235,200,200,200,200,1610612744,136,136,136,136,136,136,136,136,136,136,136,136,136,136,136,136,
136,136,136,136,161,162,136,136,136,136,136,2684354569,200,200,200,200,200,200,200,200,200,200,200,200,200,200,3221225673,136,136,136,136,136,136,136,136,136,136,136,136,136,136,136,136,
136,136,136,136,193,194,136,136,136,2684354569,3221225704,200,200,200,200,200,200,200,200,200,200,200,200,200,200,200,200,1610612744,136,136,136,136,136,136,136,136,136,136,136,136,136,136,136,
136,136,136,236,136,136,136,136,2684354569,200,200,200,200,200,200,2684354727,3221225702,3221225702,3221225702,3221225702,3221225702,198,3221225639,200,200,200,200,200,200,1610612744,136,136,136,136,136,136,136,136,136,136,136,136,136,
136,136,136,136,136,136,136,2684354569,200,200,200,200,200,200,2684354727,198,198,198,198,198,198,198,198,3221225639,200,200,200,200,200,200,1610612744,136,136,136,136,136,136,136,136,136,136,136,136,
136,136,136,136,136,136,2684354569,200,200,200,235,200,200,2684354727,198,198,198,198,198,198,198,198,198,198,3221225639,200,200,200,200,200,200,3221225704,3221225704,1610612744,136,136,136,136,136,136,136,136,136,
136,136,136,136,136,2684354569,200,200,200,200,200,200,2684354727,198,198,198,198,198,237,198,198,198,198,198,198,198,3221225639,200,200,200,200,200,200,200,1610612744,136,136,136,136,136,236,136,136,
136,136,136,136,2684354569,200,200,200,200,200,2684354727,3221225702,198,198,198,198,198,198,198,198,198,198,198,198,198,198,198,3221225702,3221225702,3221225639,200,200,200,200,200,3221225704,1610612744,136,136,136,136,136,136,
136,136,136,2684354569,200,200,200,200,200,2684354727,198,1652,1653,198,198,198,198,198,198,198,198,237,198,198,198,198,198,198,198,198,3221225639,200,200,235,200,200,200,1610612744,136,136,136,226,136,
136,136,136,201,200,200,200,200,200,2684354790,198,1684,1685,198,198,198,40,40,40,198,198,198,198,198,198,1654,198,198,198,198,198,3221225639,200,200,200,200,200,200,1610612744,136,136,136,136,
136,136,136,2684354792,200,200,200,200,200,2684354790,198,198,198,198,198,40,40,40,40,40,40,40,198,198,198,198,198,198,198,198,198,198,3221225639,200,200,200,200,200,3221225673,136,136,136,226,
136,136,136,200,200,200,200,200,2684354727,198,198,198,198,198,40,40,40,40,40,104,40,40,40,198,198,198,198,269,198,198,1654,198,198,3221225639,200,200,200,200,200,1610612744,136,136,136,
136,236,136,2684354792,200,200,200,200,2684354790,198,198,198,198,198,104,40,40,65,66,68,40,40,40,198,198,198,198,198,198,198,198,198,198,198,3221225702,3221225639,200,200,200,200,1610612744,136,136,
136,136,136,2684354792,200,200,200,2684354727,198,198,198,198,198,198,40,40,65,99,42,98,68,40,40,40,198,198,198,198,198,301,198,198,198,198,198,1610612966,200,200,200,200,200,1610612744,136,
136,136,3221225480,200,200,200,200,2684354790,198,1652,1653,198,198,40,40,40,97,73,73,73,100,40,40,40,40,40,40,40,40,198,198,198,198,198,198,198,3221225639,200,200,200,200,3221225705,136,
136,136,200,200,200,200,200,2684354790,198,1684,1685,198,198,40,40,65,99,73,34,73,98,67,68,40,40,40,104,40,40,40,198,198,198,198,198,198,198,3221225639,200,200,200,3221225673,136,
136,136,201,200,200,200,200,2684354790,198,198,198,198,198,40,40,97,337,42,69,70,71,73,98,67,67,67,68,40,40,40,40,40,198,269,198,198,198,1610612966,200,200,200,3221225705,136,
136,136,2684354792,200,200,200,200,2684354790,198,198,198,301,198,40,40,97,73,73,101,102,103,36,73,73,73,73,98,67,67,68,40,40,198,198,198,198,198,1610612966,200,200,200,3221225673,258,
136,136,2684354792,200,200,200,200,2684354790,198,301,198,198,198,40,40,97,73,35,133,134,135,73,73,73,73,34,73,73,305,100,40,104,198,198,269,198,198,1610612966,200,200,200,3221225673,136,
136,136,201,200,200,200,200,2684354790,198,198,198,198,198,104,40,97,35,73,337,73,73,73,36,130,39,73,73,42,73,100,40,40,198,198,198,198,198,1610612966,200,200,200,3221225705,136,
136,136,2684354792,200,200,200,200,2684354790,198,198,301,198,198,40,40,129,39,37,38,39,38,37,38,132,40,105,38,39,38,132,40,40,198,198,198,198,198,1610612966,200,200,200,3221225673,236,
136,136,2684354568,200,200,200,200,2684354790,198,198,198,198,198,40,40,40,40,40,40,40,40,40,40,40,40,40,40,40,40,40,40,40,198,198,1654,301,198,1610612903,200,200,200,3221225673,136,
136,136,136,2684354792,200,200,200,2684354790,198,198,198,198,198,198,40,40,40,40,40,40,40,40,40,40,40,104,40,40,40,40,198,198,198,198,198,198,1610612903,200,200,200,200,3221225705,136,
136,136,136,2684354568,200,200,200,2684354790,198,198,1652,1653,198,198,40,40,104,40,40,40,40,40,40,40,40,40,198,198,198,198,198,198,301,198,301,1610612903,200,200,200,200,200,8,136,
136,136,136,136,2684354792,200,200,2684354790,198,198,1684,1685,198,198,198,198,198,198,198,198,198,198,198,198,198,198,198,198,198,1652,1653,198,198,198,1610612903,200,200,200,200,200,3221225673,136,136,
136,136,136,136,2684354792,200,200,167,198,198,198,198,198,198,198,198,198,198,198,198,198,198,198,198,198,198,198,198,198,1684,1685,198,198,1610612966,200,200,200,200,200,200,3221225705,136,136,
136,226,136,136,2684354792,200,200,200,167,198,198,198,198,301,198,198,198,198,198,198,198,198,198,198,198,198,198,237,198,198,198,198,198,1610612966,200,200,200,200,200,200,8,136,136,
136,136,136,136,2684354792,200,200,200,200,167,269,198,198,198,198,198,198,198,198,198,198,198,198,198,301,198,198,198,198,198,198,198,198,1610612903,200,200,200,200,235,3221225705,136,136,136,
136,136,136,136,2684354792,200,200,200,200,200,2684354790,198,198,198,198,198,198,198,198,198,198,1654,198,198,198,198,198,198,198,198,198,198,1610612903,200,200,200,200,200,200,3221225705,136,136,136,
136,136,136,136,201,200,200,200,200,200,2684354790,198,198,198,198,198,198,237,198,198,198,198,198,198,198,198,198,198,198,230,230,1610612903,200,200,200,200,200,200,200,8,136,136,136,
136,136,136,136,2684354568,200,200,200,200,200,167,230,166,166,166,230,166,166,166,230,230,230,230,166,230,166,166,166,369,200,200,200,200,200,200,200,200,200,8,136,136,136,136,
226,136,136,136,136,2684354568,200,200,200,200,200,200,200,200,200,200,200,200,200,200,200,200,200,200,200,200,200,200,200,200,200,200,200,200,200,200,232,8,136,136,136,136,136,
136,136,136,136,136,136,200,200,200,200,200,200,200,200,200,200,200,200,200,200,200,200,200,200,200,200,200,200,200,200,200,200,200,200,232,8,136,136,136,336,136,136,136,
136,136,136,136,136,136,2684354568,232,200,200,200,200,200,200,200,235,200,200,200,200,200,200,200,200,200,200,200,200,200,200,200,232,232,8,136,136,136,136,136,136,136,136,136,
136,136,136,136,136,136,136,136,2684354568,200,200,200,200,200,200,200,200,200,200,200,200,200,200,200,200,200,200,200,200,232,8,136,136,136,136,136,136,136,136,136,136,236,136,
136,136,136,136,136,136,136,136,136,2684354568,168,232,232,168,232,232,232,232,232,168,232,232,232,168,232,232,168,232,8,136,136,136,136,258,136,258,226,136,136,136,136,136,136,
136,136,136,136,136,136,136,136,136,136,136,136,136,136,136,136,136,136,136,136,136,136,136,136,136,136,136,136,136,136,136,136,136,161,162,136,258,136,136,258,136,136,136,
136,136,136,136,136,136,136,136,258,136,136,236,136,136,161,162,136,136,136,136,136,136,136,136,236,136,136,136,136,136,236,136,136,193,194,136,136,136,136,136,136,136,1610613058,
136,136,136,136,136,136,136,136,136,136,136,136,136,136,193,194,136,258,136,136,136,136,136,136,136,136,136,136,136,136,136,136,258,136,136,136,136,136,136,258,226,1610613026,321,
136,136,136,136,136,136,136,136,136,236,136,136,136,136,136,136,258,226,258,136,136,136,136,136,136,136,136,136,136,136,136,136,136,136,136,136,136,136,136,136,290,1610613058,321,
136,136,136,136,136,136,136,136,136,136,136,136,136,136,136,136,136,136,136,136,136,136,136,136,136,136,136,136,136,136,136,136,136,136,226,136,136,136,290,289,321,321,321,
322,136,136,136,136,136,136,136,136,136,136,136,136,136,136,136,136,136,136,136,290,290,290,136,136,136,136,136,136,136,136,136,136,136,136,136,136,289,321,321,321,321,321,
321,322,136,136,136,136,136,136,136,136,136,136,136,136,136,136,136,290,290,289,321,321,321,322,290,290,136,136,226,136,136,136,136,290,290,290,289,321,321,321,321,321,321,
321,321,322,136,226,136,136,136,136,136,136,136,226,136,136,136,289,321,321,321,321,321,321,321,321,321,322,136,136,136,136,136,289,321,321,321,321,321,321,321,321,321,321,
321,321,321,322,136,136,136,136,290,290,136,136,136,136,136,289,321,321,321,321,321,321,321,321,321,321,321,322,290,290,290,289,321,321,321,321,321,321,321,321,321,321,321,
321,321,321,321,2684354850,136,136,289,321,321,322,290,290,290,289,321,321,321,321,321,321,321,321,321,321,321,321,321,321,321,321,321,321,321,321,321,321,321,321,321,321,321,321,
321,321,321,321,322,290,289,321,321,321,321,321,321,321,321,321,321,321,321,321,321,321,321,321,321,321,321,321,321,321,321,321,321,321,321,321,321,321,321,321,321,321,321,
321,321,321,321,321,321,321,321,321,321,321,321,321,321,321,321,321,321,321,321,321,321,321,321,321,321,321,321,321,321,321,321,321,321,321,321,321,321,321,321,321,321,321,
321,321,321,321,321,321,321,321,321,321,321,321,321,321,321,321,321,321,321,321,321,321,321,321,321,321,321,321,321,321,321,321,321,321,321,321,321,321,321,321,321,321,321,
321,321,321,321,321,321,321,321,321,321,321,321,321,321,321,321,321,321,321,321,321,321,321,321,321,321,321,321,321,321,321,321,321,321,321,321,321,321,321,321,321,321,321
</data>
 </layer>
 <layer id="2" name="Buildings" width="43" height="60">
  <data encoding="csv">
0,0,0,0,0,0,0,0,0,0,0,0,0,0,0,0,0,0,0,0,0,0,0,0,0,0,0,0,0,0,0,0,0,0,0,0,0,0,0,0,0,0,0,
0,0,0,0,0,0,0,0,0,0,0,0,0,0,0,0,0,0,0,0,0,0,0,0,0,0,0,0,0,0,0,0,0,0,0,0,0,0,0,0,0,0,0,
0,0,0,0,0,0,0,0,0,0,0,0,0,0,0,0,0,0,0,0,0,0,0,0,0,0,0,0,0,0,0,0,0,0,0,0,0,0,0,0,0,0,0,
0,0,0,0,0,0,0,0,0,0,0,0,0,0,0,0,0,0,0,0,0,0,0,0,0,0,0,0,0,0,0,0,0,0,0,0,0,0,0,0,0,0,0,
0,0,0,0,0,0,0,0,0,0,0,0,0,0,0,0,0,0,0,0,0,0,0,0,0,0,0,0,0,0,0,0,0,0,0,0,0,0,0,0,0,0,0,
0,0,0,0,0,0,0,0,0,0,0,0,0,0,0,0,0,0,0,0,0,0,0,0,0,0,0,0,0,0,0,0,0,0,0,0,0,0,0,0,0,0,0,
0,0,0,0,0,0,0,0,0,0,0,0,0,0,0,0,0,0,0,0,0,0,0,0,0,0,0,0,0,0,0,0,0,0,0,0,0,0,0,0,0,0,0,
0,0,0,0,0,0,0,0,0,0,0,0,0,0,0,0,0,0,0,0,0,0,0,0,0,0,0,0,0,0,0,0,0,0,0,0,0,0,0,0,0,0,0,
0,0,0,0,0,0,0,0,0,0,0,0,0,0,0,0,0,0,0,0,0,0,0,0,0,0,0,0,0,0,0,0,0,0,0,0,0,0,0,0,0,0,0,
0,0,0,0,0,0,0,0,0,0,0,0,0,0,0,0,0,0,0,0,0,0,0,0,0,0,0,0,0,0,0,0,0,0,0,0,0,0,0,0,0,0,0,
0,0,0,0,0,0,0,0,0,0,0,0,0,0,0,0,0,0,0,0,0,0,0,0,0,0,0,0,0,0,0,0,0,0,0,0,0,0,0,0,0,0,0,
0,0,0,0,0,0,0,0,0,0,0,0,0,0,0,0,0,0,0,0,0,0,0,0,0,0,0,0,0,0,0,0,0,0,0,0,0,0,0,0,0,0,0,
0,0,0,0,0,0,0,0,0,0,0,0,0,0,0,0,0,0,0,0,0,0,0,0,0,0,0,0,0,0,0,0,0,0,0,0,0,0,0,0,0,0,0,
0,0,0,0,0,0,0,0,0,0,0,0,0,0,0,0,0,0,0,0,0,0,0,0,0,0,0,0,0,0,0,0,0,0,0,0,0,0,0,0,0,0,0,
0,0,0,0,0,0,0,0,0,0,0,0,0,0,0,0,0,0,0,0,0,0,0,0,0,0,0,0,0,0,0,0,0,0,0,0,0,0,0,0,0,0,0,
0,0,0,0,0,0,0,0,0,0,0,0,0,0,0,0,0,0,0,0,0,0,0,0,0,0,0,0,0,0,0,0,0,0,0,0,0,0,0,0,0,0,0,
0,0,0,0,0,0,0,0,0,0,0,0,0,0,0,0,0,0,0,0,0,0,0,0,0,0,0,0,0,0,0,0,0,0,0,0,0,0,0,0,0,0,0,
0,0,0,0,0,0,0,0,0,0,0,0,0,0,0,0,0,0,0,0,0,0,0,0,0,0,0,0,0,0,0,0,0,0,0,0,0,0,0,0,0,0,0,
0,0,0,0,0,0,0,0,0,0,0,0,0,0,0,3221225926,3221225734,3221225734,3221225734,1610613190,0,0,0,0,0,0,0,0,0,0,0,0,0,0,0,0,0,0,0,0,0,0,0,
0,0,0,0,0,0,0,0,0,0,0,0,0,0,3221225926,3221225894,0,0,0,1610613158,3221225766,3221225734,1610613190,0,0,0,0,0,0,0,0,0,0,0,0,0,0,0,0,0,0,0,0,
0,0,0,0,0,0,0,0,0,0,0,0,0,3221225926,3221225894,0,0,0,0,0,0,0,1610613158,1610613190,0,0,0,0,0,0,0,0,0,0,0,0,0,0,0,0,0,0,0,
0,0,0,0,0,0,0,0,0,0,0,0,0,2684354854,0,0,0,0,0,0,0,0,0,1610612998,0,0,0,0,0,0,0,0,0,0,0,0,0,0,0,0,0,0,0,
0,0,0,0,0,0,0,0,0,0,0,0,0,2684354822,0,0,0,0,0,0,0,0,0,1610613158,1610613190,0,0,0,0,0,0,0,0,0,0,0,0,0,0,0,0,0,0,
0,0,0,0,0,0,0,0,0,0,0,0,3221225926,3221225894,0,0,0,0,0,93,0,0,0,0,1610613158,3221225766,3221225734,3221225766,3221225766,1610613190,0,0,0,0,0,0,0,0,0,0,0,0,0,
0,0,0,0,0,0,0,0,0,0,0,0,2684354822,0,0,0,0,0,0,125,0,0,0,0,0,0,0,0,0,1610613158,1610613190,0,0,0,0,0,0,0,0,0,0,0,0,
0,0,0,0,0,0,0,0,0,0,0,0,2684354822,0,0,0,0,0,0,0,0,0,0,0,0,0,0,0,0,0,1610613158,3221225766,1610613190,0,0,0,0,0,0,0,0,0,0,
0,0,0,0,0,0,0,0,0,0,0,0,2684354822,0,0,0,93,0,0,0,0,0,93,0,0,0,0,0,0,0,0,0,1610612998,0,0,0,0,0,0,0,0,0,0,
0,0,0,0,0,0,0,0,1680,1681,1682,0,2684354854,0,0,0,125,0,0,0,0,0,125,0,0,0,0,0,0,0,0,0,1610612998,0,0,0,0,0,0,0,0,0,0,
0,0,0,0,0,0,0,0,1712,1713,1714,0,2684354822,0,0,0,0,0,0,0,0,0,0,0,0,0,0,0,0,0,0,0,1610612998,0,0,0,0,0,0,0,0,0,0,
0,0,0,0,0,0,0,1743,1744,1745,1746,0,2684354822,0,0,0,0,0,0,93,0,0,0,0,0,0,0,0,0,0,0,0,1610612998,0,0,0,0,0,0,0,0,0,0,
0,0,0,0,0,0,1774,1775,1776,1777,1778,0,2684354854,0,0,0,0,0,0,125,0,0,0,0,0,0,0,0,0,0,0,0,1610612998,0,0,0,0,0,0,0,0,0,0,
0,0,0,0,0,0,1806,1807,1808,1809,1810,0,2684354822,0,0,0,0,0,0,0,0,0,0,0,0,0,0,0,0,0,0,0,1610612998,0,0,0,0,0,0,0,0,0,0,
0,0,0,0,0,0,0,0,0,0,0,0,2684355014,2684354982,0,0,0,0,0,0,0,0,0,0,0,0,0,0,0,0,422,262,454,0,0,0,0,0,0,0,0,0,0,
0,0,0,0,0,0,0,0,0,0,0,0,0,2684354854,0,0,0,0,0,0,0,0,0,0,0,0,422,262,262,262,454,0,0,0,0,0,0,0,0,0,0,0,0,
0,0,0,0,0,0,0,0,0,0,0,0,0,2684355014,294,294,262,294,294,262,294,294,262,294,294,262,454,0,0,0,0,0,0,0,0,0,0,0,0,0,0,0,0,
0,0,0,0,0,0,0,0,0,0,0,0,0,0,0,0,0,0,0,0,0,0,0,0,0,0,0,0,0,0,0,0,0,0,0,0,0,0,0,0,0,0,0,
0,0,0,0,0,0,0,0,0,0,0,0,0,0,0,0,0,0,0,0,0,0,0,0,0,0,0,0,0,0,0,0,0,0,0,0,0,0,0,0,0,0,0,
0,0,0,0,0,0,0,0,0,0,0,0,0,0,0,0,0,0,0,0,0,0,0,0,0,0,0,0,0,0,0,0,0,0,0,0,0,0,0,0,0,0,0,
0,0,0,0,0,0,0,0,0,0,0,0,0,0,0,0,0,0,0,0,0,0,0,0,0,0,0,0,0,0,0,0,0,0,0,0,0,0,0,0,0,0,0,
0,0,0,0,0,0,0,0,0,0,0,0,0,0,0,0,0,0,0,0,0,0,0,0,0,0,0,0,0,0,0,0,0,0,0,0,0,0,0,0,0,0,0,
0,0,0,0,0,0,0,0,0,0,0,0,0,0,0,0,0,0,0,0,0,0,0,0,0,0,0,0,0,0,0,0,0,0,0,0,0,0,0,0,0,0,0,
0,0,0,0,0,0,0,0,0,0,0,0,0,0,0,0,0,0,0,0,0,0,0,0,0,0,0,0,0,0,0,0,0,0,0,0,0,0,0,0,0,0,0,
0,0,0,0,0,0,0,0,0,0,0,0,0,0,0,0,0,0,0,0,0,0,0,0,0,0,0,0,0,0,0,0,0,0,0,0,0,0,0,0,0,0,0,
0,0,0,0,0,0,0,0,0,0,0,0,0,0,0,0,0,0,0,0,0,0,0,0,0,0,0,0,0,0,0,0,0,0,0,0,0,0,0,0,0,0,0,
0,0,0,0,0,0,0,0,0,0,0,0,0,0,0,0,0,0,0,0,0,0,0,0,0,0,0,0,0,0,0,0,0,0,0,0,0,0,0,0,0,0,0,
0,0,0,0,0,0,0,0,0,0,0,0,0,0,0,0,0,0,0,0,0,0,0,0,0,0,0,0,0,0,0,0,0,0,0,0,0,0,0,0,0,0,0,
0,0,0,0,0,0,0,0,0,0,0,0,0,0,0,0,0,0,0,0,0,0,0,0,0,0,0,0,0,0,0,0,0,0,0,0,0,0,0,0,0,0,0,
0,0,0,0,0,0,0,0,0,0,0,0,0,0,0,0,0,0,0,0,0,0,0,0,0,0,0,0,0,0,0,0,0,0,0,0,0,0,0,0,0,0,0,
0,0,0,0,0,0,0,0,0,0,0,0,0,0,0,0,0,0,0,0,0,0,0,0,0,0,0,0,0,0,0,0,0,0,0,0,0,0,0,0,0,0,0,
0,0,0,0,0,0,0,0,0,0,0,0,0,0,0,0,0,0,0,0,0,0,0,0,0,0,0,0,0,0,0,0,0,0,0,0,0,0,0,0,0,0,0,
0,0,0,0,0,0,0,0,0,0,0,0,0,0,0,0,0,0,0,0,0,0,0,0,0,0,0,0,0,0,0,0,0,0,0,0,0,0,0,0,0,0,0,
0,0,0,0,0,0,0,0,0,0,0,0,0,0,0,0,0,0,0,0,0,0,0,0,0,0,0,0,0,0,0,0,0,0,0,0,0,0,0,0,0,0,0,
0,0,0,0,0,0,0,0,0,0,0,0,0,0,0,0,0,0,0,0,0,0,0,0,0,0,0,0,0,0,0,0,0,0,0,0,0,0,0,0,0,0,0,
0,0,0,0,0,0,0,0,0,0,0,0,0,0,0,0,0,0,0,0,0,0,0,0,0,0,0,0,0,0,0,0,0,0,0,0,0,0,0,0,0,0,0,
0,0,0,0,0,0,0,0,0,0,0,0,0,0,0,0,0,0,0,0,0,0,0,0,0,0,0,0,0,0,0,0,0,0,0,0,0,0,0,0,0,0,0,
0,0,0,0,0,0,0,0,0,0,0,0,0,0,0,0,0,0,0,0,0,0,0,0,0,0,0,0,0,0,0,0,0,0,0,0,0,0,0,0,0,0,0,
0,0,0,0,0,0,0,0,0,0,0,0,0,0,0,0,0,0,0,0,0,0,0,0,0,0,0,0,0,0,0,0,0,0,0,0,0,0,0,0,0,0,0,
0,0,0,0,0,0,0,0,0,0,0,0,0,0,0,0,0,0,0,0,0,0,0,0,0,0,0,0,0,0,0,0,0,0,0,0,0,0,0,0,0,0,0,
0,0,0,0,0,0,0,0,0,0,0,0,0,0,0,0,0,0,0,0,0,0,0,0,0,0,0,0,0,0,0,0,0,0,0,0,0,0,0,0,0,0,0,
0,0,0,0,0,0,0,0,0,0,0,0,0,0,0,0,0,0,0,0,0,0,0,0,0,0,0,0,0,0,0,0,0,0,0,0,0,0,0,0,0,0,0
</data>
 </layer>
 <layer id="3" name="Front" width="43" height="60">
  <data encoding="csv">
0,0,0,0,0,0,0,0,0,0,0,0,0,0,0,0,0,0,0,0,0,0,0,0,0,0,0,0,0,0,0,0,0,0,0,0,0,0,0,0,0,0,0,
0,0,0,0,0,0,0,0,0,0,0,0,0,0,0,0,0,0,0,0,0,0,0,0,0,0,0,0,0,0,0,0,0,0,0,0,0,0,0,0,0,0,0,
0,0,0,0,0,0,0,0,0,0,0,0,0,0,0,0,0,0,0,0,0,0,0,0,0,0,0,0,0,0,0,0,0,0,0,0,0,0,0,0,0,0,0,
0,0,0,0,0,0,0,0,0,0,0,0,0,0,0,0,0,0,0,0,0,0,0,0,0,0,0,0,0,0,0,0,0,0,0,0,0,0,0,0,0,0,0,
0,0,0,0,0,0,0,0,0,0,0,0,0,0,0,0,0,0,0,0,0,0,0,0,0,0,0,0,0,0,0,0,0,0,0,0,0,0,0,0,0,0,0,
0,0,0,0,0,0,0,0,0,0,0,0,0,0,0,0,0,0,0,0,0,0,0,0,0,0,0,0,0,0,0,0,0,0,0,0,0,0,0,0,0,0,0,
0,0,0,0,0,0,0,0,0,0,0,0,0,0,0,0,0,0,0,0,0,0,0,0,0,0,0,0,0,0,0,0,0,0,0,0,0,0,0,0,0,0,0,
0,0,0,0,0,0,0,0,0,0,0,0,0,0,0,0,0,0,0,0,0,0,0,0,0,0,0,0,0,0,0,0,0,0,0,0,0,0,0,0,0,0,0,
0,0,0,0,0,0,0,0,0,0,0,0,0,0,0,0,0,0,0,0,0,0,0,0,0,0,0,0,0,0,0,0,0,0,0,0,0,0,0,0,0,0,0,
0,0,0,0,0,0,0,0,0,0,0,0,0,0,0,0,0,0,0,0,0,0,0,0,0,0,0,0,0,0,0,0,0,0,0,0,0,0,0,0,0,0,0,
0,0,0,0,0,0,0,0,0,0,0,0,0,0,0,0,0,0,0,0,0,0,0,0,0,0,0,0,0,0,0,0,0,0,0,0,0,0,0,0,0,0,0,
0,0,0,0,0,0,0,0,0,0,0,0,0,0,0,0,0,0,0,0,0,0,0,0,0,0,0,0,0,0,0,0,0,0,0,0,0,0,0,0,0,0,0,
0,0,0,0,0,0,0,0,0,0,0,0,0,0,0,0,0,0,0,0,0,0,0,0,0,0,0,0,0,0,0,0,0,0,0,0,0,0,0,0,0,0,0,
0,0,0,0,0,0,0,0,0,0,0,0,0,0,0,0,0,0,0,0,0,0,0,0,0,0,0,0,0,0,0,0,0,0,0,0,0,0,0,0,0,0,0,
0,0,0,0,0,0,0,0,0,0,0,0,0,0,0,0,0,0,0,0,0,0,0,0,0,0,0,0,0,0,0,0,0,0,0,0,0,0,0,0,0,0,0,
0,0,0,0,0,0,0,0,0,0,0,0,0,0,0,0,0,0,0,0,0,0,0,0,0,0,0,0,0,0,0,0,0,0,0,0,0,0,0,0,0,0,0,
0,0,0,0,0,0,0,0,0,0,0,0,0,0,0,0,0,0,0,0,0,0,0,0,0,0,0,0,0,0,0,0,0,0,0,0,0,0,0,0,0,0,0,
0,0,0,0,0,0,0,0,0,0,0,0,0,0,0,0,0,0,0,0,0,0,0,0,0,0,0,0,0,0,0,0,0,0,0,0,0,0,0,0,0,0,0,
0,0,0,0,0,0,0,0,0,0,0,0,0,0,0,0,0,0,0,0,0,0,0,0,0,0,0,0,0,0,0,0,0,0,0,0,0,0,0,0,0,0,0,
0,0,0,0,0,0,0,0,0,0,0,0,0,0,0,0,0,0,0,0,0,0,0,0,0,0,0,0,0,0,0,0,0,0,0,0,0,0,0,0,0,0,0,
0,0,0,0,0,0,0,0,0,0,0,0,0,0,0,0,0,0,0,0,0,0,0,0,0,0,0,0,0,0,0,0,0,0,0,0,0,0,0,0,0,0,0,
0,0,0,0,0,0,0,0,0,0,0,0,0,0,0,0,0,0,0,0,0,0,0,0,0,0,0,0,0,0,0,0,0,0,0,0,0,0,0,0,0,0,0,
0,0,0,0,0,0,0,0,0,0,0,0,0,0,0,0,0,0,0,0,0,0,0,0,0,0,0,0,0,0,0,0,0,0,0,0,0,0,0,0,0,0,0,
0,0,0,0,0,0,0,0,0,0,0,0,0,0,0,0,0,0,0,0,0,0,0,0,0,0,0,0,0,0,0,0,0,0,0,0,0,0,0,0,0,0,0,
0,0,0,0,0,0,0,0,0,0,0,0,0,0,0,0,0,0,0,0,0,0,0,0,0,0,0,0,0,0,0,0,0,0,0,0,0,0,0,0,0,0,0,
0,0,0,0,0,0,0,0,0,0,0,0,0,0,0,0,0,0,0,0,0,0,0,0,0,0,0,0,0,0,0,0,0,0,0,0,0,0,0,0,0,0,0,
0,0,0,0,0,0,0,0,0,0,0,0,0,0,0,0,0,0,0,0,0,0,0,0,0,0,0,0,0,0,0,0,0,0,0,0,0,0,0,0,0,0,0,
0,0,0,0,0,0,0,0,0,0,0,0,0,0,0,0,0,0,0,0,0,0,0,0,0,0,0,0,0,0,0,0,0,0,0,0,0,0,0,0,0,0,0,
0,0,0,0,0,0,0,0,0,0,0,0,0,0,0,0,0,0,0,0,0,0,0,0,0,0,0,0,0,0,0,0,0,0,0,0,0,0,0,0,0,0,0,
0,0,0,0,0,0,0,0,0,0,0,0,0,0,0,0,0,0,0,0,0,0,0,0,0,0,0,0,0,0,0,0,0,0,0,0,0,0,0,0,0,0,0,
0,0,0,0,0,0,0,0,0,0,0,0,0,0,0,0,0,0,0,0,0,0,0,0,0,0,0,0,0,0,0,0,0,0,0,0,0,0,0,0,0,0,0,
0,0,0,0,0,0,0,0,0,0,0,0,0,0,0,0,0,0,0,0,0,0,0,0,0,0,0,0,0,0,0,0,0,0,0,0,0,0,0,0,0,0,0,
0,0,0,0,0,0,0,0,0,0,0,0,0,0,0,0,0,0,0,0,0,0,0,0,0,0,0,0,0,0,0,0,0,0,0,0,0,0,0,0,0,0,0,
0,0,0,0,0,0,0,0,0,0,0,0,0,0,0,0,0,0,0,0,0,0,0,0,0,0,0,0,0,0,0,0,0,0,0,0,0,0,0,0,0,0,0,
0,0,0,0,0,0,0,0,0,0,0,0,0,0,0,0,0,0,0,0,0,0,0,0,0,0,0,0,0,0,0,0,0,0,0,0,0,0,0,0,0,0,0,
0,0,0,0,0,0,0,0,0,0,0,0,0,0,0,0,0,0,0,0,0,0,0,0,0,0,0,0,0,0,0,0,0,0,0,0,0,0,0,0,0,0,0,
0,0,0,0,0,0,0,0,0,0,0,0,0,0,0,0,0,0,0,0,0,0,0,0,0,0,0,0,0,0,0,0,0,0,0,0,0,0,0,0,0,0,0,
0,0,0,0,0,0,0,0,0,0,0,0,0,0,0,0,0,0,0,0,0,0,0,0,0,0,0,0,0,0,0,0,0,0,0,0,0,0,0,0,0,0,0,
0,0,0,0,0,0,0,0,0,0,0,0,0,0,0,0,0,0,0,0,0,0,0,0,0,0,0,0,0,0,0,0,0,0,0,0,0,0,0,0,0,0,0,
0,0,0,0,0,0,0,0,0,0,0,0,0,0,0,0,0,0,0,0,0,0,0,0,0,0,0,0,0,0,0,0,0,0,0,0,0,0,0,0,0,0,0,
0,0,0,0,0,0,0,0,0,0,0,0,0,0,0,0,0,0,0,0,0,0,0,0,0,0,0,0,0,0,0,0,0,0,0,0,0,0,0,0,0,0,0,
0,0,0,0,0,0,0,0,0,0,0,0,0,0,0,0,0,0,0,0,0,0,0,0,0,0,0,0,0,0,0,0,0,0,0,0,0,0,0,0,0,0,0,
0,0,0,0,0,0,0,0,0,0,0,0,0,0,0,0,0,0,0,0,0,0,0,0,0,0,0,0,0,0,0,0,0,0,0,0,0,0,0,0,0,0,0,
0,0,0,0,0,0,0,0,0,0,0,0,0,0,0,0,0,0,0,0,0,0,0,0,0,0,0,0,0,0,0,0,0,0,0,0,0,0,0,0,0,0,0,
0,0,0,0,0,0,0,0,0,0,0,0,0,0,0,0,0,0,0,0,0,0,0,0,0,0,0,0,0,0,0,0,0,0,0,0,0,0,0,0,0,0,0,
0,0,0,0,0,0,0,0,0,0,0,0,0,0,0,0,0,0,0,0,0,0,0,0,0,0,0,0,0,0,0,0,0,0,0,0,0,0,0,0,0,0,0,
0,0,0,0,0,0,0,0,0,0,0,0,0,0,0,0,0,0,0,0,0,0,0,0,0,0,0,0,0,0,0,0,0,0,0,0,0,0,0,0,0,0,0,
0,0,0,0,0,0,0,0,0,0,0,0,0,0,0,0,0,0,0,0,0,0,0,0,0,0,0,0,0,0,0,0,0,0,0,0,0,0,0,0,0,0,0,
0,0,0,0,0,0,0,0,0,0,0,0,0,0,0,0,0,0,0,0,0,0,0,0,0,0,0,0,0,0,0,0,0,0,0,0,0,0,0,0,0,0,0,
0,0,0,0,0,0,0,0,0,0,0,0,0,0,0,0,0,0,0,0,0,0,0,0,0,0,0,0,0,0,0,0,0,0,0,0,0,0,0,0,0,0,0,
0,0,0,0,0,0,0,0,0,0,0,0,0,0,0,0,0,0,0,0,0,0,0,0,0,0,0,0,0,0,0,0,0,0,0,0,0,0,0,0,0,0,0,
0,0,0,0,0,0,0,0,0,0,0,0,0,0,0,0,0,0,0,0,0,0,0,0,0,0,0,0,0,0,0,0,0,0,0,0,0,0,0,0,0,0,0,
0,0,0,0,0,0,0,0,0,0,0,0,0,0,0,0,0,0,0,0,0,0,0,0,0,0,0,0,0,0,0,0,0,0,0,0,0,0,0,0,0,0,0,
0,0,0,0,0,0,0,0,0,0,0,0,0,0,0,0,0,0,0,0,0,0,0,0,0,0,0,0,0,0,0,0,0,0,0,0,0,0,0,0,0,0,0,
0,0,0,0,0,0,0,0,0,0,0,0,0,0,0,0,0,0,0,0,0,0,0,0,0,0,0,0,0,0,0,0,0,0,0,0,0,0,0,0,0,0,0,
0,0,0,0,0,0,0,0,0,0,0,0,0,0,0,0,0,0,0,0,0,0,0,0,0,0,0,0,0,0,0,0,0,0,0,0,0,0,0,0,0,0,0,
0,0,0,0,0,0,0,0,0,0,0,0,0,0,0,0,0,0,0,0,0,0,0,0,0,0,0,0,0,0,0,0,0,0,0,0,0,0,0,0,0,0,0,
0,0,0,0,0,0,0,0,0,0,0,0,0,0,0,0,0,0,0,0,0,0,0,0,0,0,0,0,0,0,0,0,0,0,0,0,0,0,0,0,0,0,0,
0,0,0,0,0,0,0,0,0,0,0,0,0,0,0,0,0,0,0,0,0,0,0,0,0,0,0,0,0,0,0,0,0,0,0,0,0,0,0,0,0,0,0,
0,0,0,0,0,0,0,0,0,0,0,0,0,0,0,0,0,0,0,0,0,0,0,0,0,0,0,0,0,0,0,0,0,0,0,0,0,0,0,0,0,0,0
</data>
 </layer>
 <layer id="4" name="AlwaysFront" width="43" height="60">
  <data encoding="csv">
0,0,0,0,0,0,0,0,0,0,0,0,0,0,0,0,0,0,0,0,0,0,0,0,0,0,0,0,0,0,0,0,0,0,0,0,0,0,0,0,0,0,0,
0,0,0,0,0,0,0,0,0,0,0,0,0,0,0,0,0,0,0,0,0,0,0,0,0,0,0,0,0,0,0,0,0,0,0,0,0,0,0,0,0,0,0,
0,0,0,0,0,0,0,0,0,0,0,0,0,0,0,0,0,0,0,0,0,0,0,0,0,0,0,0,0,0,0,0,0,0,0,0,0,0,0,0,0,0,0,
0,0,0,0,0,0,0,0,0,0,0,0,0,0,0,0,0,0,0,0,0,0,0,0,0,0,0,0,0,0,0,0,0,0,0,0,0,0,0,0,0,0,0,
0,0,0,0,0,0,0,0,0,0,0,0,0,0,0,0,0,0,0,0,0,0,0,0,0,0,0,0,0,0,0,0,0,0,0,0,0,0,0,0,0,0,0,
0,0,0,0,0,0,0,0,0,0,0,0,0,0,0,0,0,0,0,0,0,0,0,0,0,0,0,0,0,0,0,0,0,0,0,0,0,0,0,0,0,0,0,
0,0,0,0,0,0,0,0,0,0,0,0,0,0,0,0,0,0,0,0,0,0,0,0,0,0,0,0,0,0,0,0,0,0,0,0,0,0,0,0,0,0,0,
0,0,0,0,0,0,0,0,0,0,0,0,0,0,0,0,0,0,0,0,0,0,0,0,0,0,0,0,0,0,0,0,0,0,0,0,0,0,0,0,0,0,0,
0,0,0,0,0,0,0,0,0,0,0,0,0,0,0,0,0,0,0,0,0,0,0,0,0,0,0,0,0,0,0,0,0,0,0,0,0,0,0,0,0,0,0,
0,0,0,0,0,0,0,0,0,0,0,0,0,0,0,0,0,0,0,0,0,0,0,0,0,0,0,0,0,0,0,0,0,0,0,0,0,0,0,0,0,0,0,
0,0,0,0,0,0,0,0,0,0,0,0,0,0,0,0,0,0,0,0,0,0,0,0,0,0,0,0,0,0,0,0,0,0,0,0,0,0,0,0,0,0,0,
0,0,0,0,0,0,0,0,0,0,0,0,0,0,0,0,0,0,0,0,0,0,0,0,0,0,0,0,0,0,0,0,0,0,0,0,0,0,0,0,0,0,0,
0,0,0,0,0,0,0,0,0,0,0,0,0,0,0,0,0,0,0,0,0,0,0,0,0,0,0,0,0,0,0,0,0,0,0,0,0,0,0,0,0,0,0,
0,0,0,0,0,0,0,0,0,0,0,0,0,0,0,0,0,0,0,0,0,0,0,0,0,0,0,0,0,0,0,0,0,0,0,0,0,0,0,0,0,0,0,
0,0,0,0,0,0,0,0,0,0,0,0,0,0,0,0,0,0,0,0,0,0,0,0,0,0,0,0,0,0,0,0,0,0,0,0,0,0,0,0,0,0,0,
0,0,0,0,0,0,0,0,0,0,0,0,0,0,0,0,0,0,0,0,0,0,0,0,0,0,0,0,0,0,0,0,0,0,0,0,0,0,0,0,0,0,0,
0,0,0,0,0,0,0,0,0,0,0,0,0,0,0,0,0,0,0,0,0,0,0,0,0,0,0,0,0,0,0,0,0,0,0,0,0,0,0,0,0,0,0,
0,0,0,0,0,0,0,0,0,0,0,0,0,0,0,0,0,0,0,0,0,0,0,0,0,0,0,0,0,0,0,0,0,0,0,0,0,0,0,0,0,0,0,
0,0,0,0,0,0,0,0,0,0,0,0,0,0,0,0,0,0,0,0,0,0,0,0,0,0,0,0,0,0,0,0,0,0,0,0,0,0,0,0,0,0,0,
0,0,0,0,0,0,0,0,0,0,0,0,0,0,0,0,0,0,0,0,0,0,0,0,0,0,0,0,0,0,0,0,0,0,0,0,0,0,0,0,0,0,0,
0,0,0,0,0,0,0,0,0,0,0,0,0,0,0,0,0,0,0,0,0,0,0,0,0,0,0,0,0,0,0,0,0,0,0,0,0,0,0,0,0,0,0,
0,0,0,0,0,0,0,0,0,0,0,0,0,0,0,0,0,0,0,0,0,0,0,0,0,0,0,0,0,0,0,0,0,0,0,0,0,0,0,0,0,0,0,
0,0,0,0,0,0,0,0,0,0,0,0,0,0,0,0,0,0,0,0,0,0,0,0,0,0,0,0,0,0,0,0,0,0,0,0,0,0,0,0,0,0,0,
0,0,0,0,0,0,0,0,0,0,0,0,0,0,0,0,0,0,0,0,0,0,0,0,0,0,0,0,0,0,0,0,0,0,0,0,0,0,0,0,0,0,0,
0,0,0,0,0,0,0,0,0,0,0,0,0,0,0,0,0,0,0,0,0,0,0,0,0,0,0,0,0,0,0,0,0,0,0,0,0,0,0,0,0,0,0,
0,0,0,0,0,0,0,0,0,0,0,0,0,0,0,0,0,0,0,0,0,0,0,0,0,0,0,0,0,0,0,0,0,0,0,0,0,0,0,0,0,0,0,
0,0,0,0,0,0,0,0,0,0,0,0,0,0,0,0,0,0,0,0,0,0,0,0,0,0,0,0,0,0,0,0,0,0,0,0,0,0,0,0,0,0,0,
0,0,0,0,0,0,0,0,0,0,0,0,0,0,0,0,0,0,0,0,0,0,0,0,0,0,0,0,0,0,0,0,0,0,0,0,0,0,0,0,0,0,0,
0,0,0,0,0,0,0,0,0,0,0,0,0,0,0,0,0,0,0,0,0,0,0,0,0,0,0,0,0,0,0,0,0,0,0,0,0,0,0,0,0,0,0,
0,0,0,0,0,0,0,0,0,0,0,0,0,0,0,0,0,0,0,0,0,0,0,0,0,0,0,0,0,0,0,0,0,0,0,0,0,0,0,0,0,0,0,
0,0,0,0,0,0,0,0,0,0,0,0,0,0,0,0,0,0,0,0,0,0,0,0,0,0,0,0,0,0,0,0,0,0,0,0,0,0,0,0,0,0,0,
0,0,0,0,0,0,0,0,0,0,0,0,0,0,0,0,0,0,0,0,0,0,0,0,0,0,0,0,0,0,0,0,0,0,0,0,0,0,0,0,0,0,0,
0,0,0,0,0,0,0,0,0,0,0,0,0,0,0,0,0,0,0,0,0,0,0,0,0,0,0,0,0,0,0,0,0,0,0,0,0,0,0,0,0,0,0,
0,0,0,0,0,0,0,0,0,0,0,0,0,0,0,0,0,0,0,0,0,0,0,0,0,0,0,0,0,0,0,0,0,0,0,0,0,0,0,0,0,0,0,
0,0,0,0,0,0,0,0,0,0,0,0,0,0,0,0,0,0,0,0,0,0,0,0,0,0,0,0,0,0,0,0,0,0,0,0,0,0,0,0,0,0,0,
0,0,0,0,0,0,0,0,0,0,0,0,0,0,0,0,0,0,0,0,0,0,0,0,0,0,0,0,0,0,0,0,0,0,0,0,0,0,0,0,0,0,0,
0,0,0,0,0,0,0,0,0,0,0,0,0,0,0,0,0,0,0,0,0,0,0,0,0,0,0,0,0,0,0,0,0,0,0,0,0,0,0,0,0,0,0,
0,0,0,0,0,0,0,0,0,0,0,0,0,0,0,0,0,0,0,0,0,0,0,0,0,0,0,0,0,0,0,0,0,0,0,0,0,0,0,0,0,0,0,
0,0,0,0,0,0,0,0,0,0,0,0,0,0,0,0,0,0,0,0,0,0,0,0,0,0,0,0,0,0,0,0,0,0,0,0,0,0,0,0,0,0,0,
0,0,0,0,0,0,0,0,0,0,0,0,0,0,0,0,0,0,0,0,0,0,0,0,0,0,0,0,0,0,0,0,0,0,0,0,0,0,0,0,0,0,0,
0,0,0,0,0,0,0,0,0,0,0,0,0,0,0,0,0,0,0,0,0,0,0,0,0,0,0,0,0,0,0,0,0,0,0,0,0,0,0,0,0,0,0,
0,0,0,0,0,0,0,0,0,0,0,0,0,0,0,0,0,0,0,0,0,0,0,0,0,0,0,0,0,0,0,0,0,0,0,0,0,0,0,0,0,0,0,
0,0,0,0,0,0,0,0,0,0,0,0,0,0,0,0,0,0,0,0,0,0,0,0,0,0,0,0,0,0,0,0,0,0,0,0,0,0,0,0,0,0,0,
0,0,0,0,0,0,0,0,0,0,0,0,0,0,0,0,0,0,0,0,0,0,0,0,0,0,0,0,0,0,0,0,0,0,0,0,0,0,0,0,0,0,0,
0,0,0,0,0,0,0,0,0,0,0,0,0,0,0,0,0,0,0,0,0,0,0,0,0,0,0,0,0,0,0,0,0,0,0,0,0,0,0,0,0,0,0,
0,0,0,0,0,0,0,0,0,0,0,0,0,0,0,0,0,0,0,0,0,0,0,0,0,0,0,0,0,0,0,0,0,0,0,0,0,0,0,0,0,0,0,
0,0,0,0,0,0,0,0,0,0,0,0,0,0,0,0,0,0,0,0,0,0,0,0,0,0,0,0,0,0,0,0,0,0,0,0,0,0,0,0,0,0,0,
0,0,0,0,0,0,0,0,0,0,0,0,0,0,0,0,0,0,0,0,0,0,0,0,0,0,0,0,0,0,0,0,0,0,0,0,0,0,0,0,0,0,0,
0,0,0,0,0,0,0,0,0,0,0,0,0,0,0,0,0,0,0,0,0,0,0,0,0,0,0,0,0,0,0,0,0,0,0,0,0,0,0,0,0,0,0,
0,0,0,0,0,0,0,0,0,0,0,0,0,0,0,0,0,0,0,0,0,0,0,0,0,0,0,0,0,0,0,0,0,0,0,0,0,0,0,0,0,0,0,
0,0,0,0,0,0,0,0,0,0,0,0,0,0,0,0,0,0,0,0,0,0,0,0,0,0,0,0,0,0,0,0,0,0,0,0,0,0,0,0,0,0,0,
0,0,0,0,0,0,0,0,0,0,0,0,0,0,0,0,0,0,0,0,0,0,0,0,0,0,0,0,0,0,0,0,0,0,0,0,0,0,0,0,0,0,0,
0,0,0,0,0,0,0,0,0,0,0,0,0,0,0,0,0,0,0,0,0,0,0,0,0,0,0,0,0,0,0,0,0,0,0,0,0,0,0,0,0,0,0,
0,0,0,0,0,0,0,0,0,0,0,0,0,0,0,0,0,0,0,0,0,0,0,0,0,0,0,0,0,0,0,0,0,0,0,0,0,0,0,0,0,0,0,
0,0,0,0,0,0,0,0,0,0,0,0,0,0,0,0,0,0,0,0,0,0,0,0,0,0,0,0,0,0,0,0,0,0,0,0,0,0,0,0,0,0,0,
0,0,0,0,0,0,0,0,0,0,0,0,0,0,0,0,0,0,0,0,0,0,0,0,0,0,0,0,0,0,0,0,0,0,0,0,0,0,0,0,0,0,0,
0,0,0,0,0,0,0,0,0,0,0,0,0,0,0,0,0,0,0,0,0,0,0,0,0,0,0,0,0,0,0,0,0,0,0,0,0,0,0,0,0,0,0,
0,0,0,0,0,0,0,0,0,0,0,0,0,0,0,0,0,0,0,0,0,0,0,0,0,0,0,0,0,0,0,0,0,0,0,0,0,0,0,0,0,0,0,
0,0,0,0,0,0,0,0,0,0,0,0,0,0,0,0,0,0,0,0,0,0,0,0,0,0,0,0,0,0,0,0,0,0,0,0,0,0,0,0,0,0,0,
0,0,0,0,0,0,0,0,0,0,0,0,0,0,0,0,0,0,0,0,0,0,0,0,0,0,0,0,0,0,0,0,0,0,0,0,0,0,0,0,0,0,0
</data>
 </layer>
 <objectgroup id="5" name="Back"/>
 <objectgroup id="6" name="Buildings">
  <object id="19" name="TileData" x="416" y="704" width="16" height="16">
   <properties>
    <property name="Action" value="MermaidIslandBridgeRepair"/>
   </properties>
  </object>
 </objectgroup>
 <objectgroup id="7" name="Front"/>
 <objectgroup id="8" name="AlwaysFront"/>
</map>
